(File created: Monday November 17 2025 - 02:49 PM)
(for Carvera from Vectric)
(VECTRIC POST REVISION)
(AA6001CAC4E9696A3EC4F9B49CBCFB6D)
G90G54
G17
G21

T1M6
G0Z20.320
G0X0.000Y0.000
S10000M3
G0X47.867Y1.128
G0Z5.080
G1Z-1.000F300.0
G1X1.393F1000.0
X1.357Y1.131
X1.353Y1.185
Y3.351
X48.144
X48.200Y3.522
X48.292Y3.715
X48.392Y3.906
X48.517Y4.083
X48.664Y4.241
X48.739Y4.316
X48.896Y4.463
X49.073Y4.588
X49.264Y4.687
X49.406Y4.758
X49.415Y4.767
X49.573Y4.914
X49.749Y5.038
X49.941Y5.138
X50.133Y5.231
X50.337Y5.297
X50.535Y5.365
X50.741Y5.406
X50.950Y5.420
X51.251
X51.270Y5.420
X51.294Y5.443
X51.414Y5.559
X51.433Y5.573
X1.353
Y7.796
G0Z5.080
G0X63.460Y1.128
G1Z-1.000F300.0
G1X57.931F1000.0
X57.971Y1.170
X58.046Y1.245
X58.122Y1.320
X58.275Y1.486
X58.405Y1.673
X58.506Y1.878
X58.577Y2.092
X58.645Y2.290
X58.686Y2.496
X58.700Y2.705
Y3.006
X58.687Y3.210
X58.659Y3.351
X63.500
Y5.573
X54.689
G0Z5.080
G0X1.353Y7.796
G1Z-1.000F300.0
G1X63.500F1000.0
Y10.018
X1.353
Y12.241
X63.500
Y14.463
X1.353
Y16.686
X63.500
Y18.908
X1.353
Y21.131
X63.500
Y23.353
X1.353
Y25.576
X63.500
Y27.798
X1.353
Y30.021
X63.500
Y32.243
X1.353
Y34.466
X63.500
Y36.688
X1.353
Y38.911
X63.500
Y41.133
X1.353
Y43.356
X63.500
Y45.578
X1.353
Y47.801
X63.500
Y50.023
X1.353
Y52.246
X63.500
Y54.468
X1.353
Y56.691
X63.500
Y58.913
X1.353
Y61.136
X63.500
Y63.358
X1.353
Y65.581
X63.500
Y67.803
X1.353
Y70.026
X63.500
Y72.248
X1.353
Y74.471
X63.500
Y76.693
X1.353
Y78.916
X63.500
Y81.138
X1.353
Y83.361
X44.109
X44.083Y83.389
X43.958Y83.566
X43.859Y83.757
X43.770Y83.941
X43.704Y84.136
X43.665Y84.338
X43.652Y84.541
Y85.067
X43.666Y85.279
X43.709Y85.489
X43.742Y85.583
X1.353
Y87.787
X45.681
Y88.149
X45.693Y88.343
X45.729Y88.536
X45.788Y88.723
X45.869Y88.899
X1.393
G0Z5.080
G0X47.430Y83.361
G1Z-1.000F300.0
G1X63.500F1000.0
Y85.583
X51.476
X51.518Y85.669
X51.583Y85.864
X51.623Y86.066
X51.636Y86.270
Y86.646
X51.623Y86.849
X51.583Y87.051
X51.518Y87.246
X51.429Y87.430
X51.354Y87.580
X51.254Y87.771
X51.243Y87.787
X63.500
Y88.842
X63.496Y88.896
X63.460Y88.899
X50.020
G0Z5.080
G0X47.867Y1.127
G1Z-1.000F300.0
G1X47.860Y1.278F1000.0
Y1.578
G2X47.940Y2.075I1.588J0.000
G1X48.010Y2.436
Y2.705
G2X48.133Y3.319I1.587J0.000
G1X48.292Y3.715
G2X48.664Y4.241I1.455J-0.634
G1X48.739Y4.316
G2X49.264Y4.687I1.159J-1.084
G1X49.406Y4.758
X49.415Y4.767
G2X49.941Y5.138I1.159J-1.084
G1X50.337Y5.297
G2X50.950Y5.420I0.613J-1.464
G1X51.251
X51.270Y5.420
X51.294Y5.443
G2X51.689Y5.750I1.159J-1.084
G2X52.679Y6.096I0.990J-1.241
G1X53.205
G2X53.818Y5.973I0.000J-1.588
G1X54.214Y5.814
X54.365Y5.739
X54.515Y5.664
G2X55.041Y5.293I-0.634J-1.455
G1X55.116Y5.217
X55.191Y5.142
X55.381Y4.929
G2X56.136Y5.119I0.754J-1.397
G1X56.662
G2X57.446Y4.912I0.000J-1.588
G2X57.971Y4.541I-0.634J-1.455
G1X58.046Y4.466
G2X58.418Y3.940I-1.084J-1.159
G1X58.493Y3.790
G2X58.700Y3.006I-1.380J-0.784
G1Y2.705
G2X58.577Y2.092I-1.587J0.000
G2X58.122Y1.320I-1.539J0.388
G1X58.046Y1.245
X57.971Y1.170
X57.930Y1.127
X63.442
X63.496Y1.131
X63.500Y1.185
Y88.842
X63.496Y88.896
X63.442Y88.900
X50.019
X50.131Y88.638
X50.307Y88.552
X50.457Y88.477
G2X50.983Y88.106I-0.634J-1.455
G2X51.354Y87.580I-1.084J-1.159
G1X51.429Y87.430
G2X51.636Y86.646I-1.380J-0.784
G1Y86.270
G2X51.429Y85.486I-1.588J0.000
G1X51.354Y85.335
G2X50.983Y84.810I-1.455J0.634
G2X50.588Y84.503I-1.159J1.084
G2X49.986Y84.204I-0.990J1.241
G1X49.760Y84.129
G2X49.147Y84.006I-0.613J1.464
G1X48.546
G2X47.927Y84.132I0.000J1.587
G1X47.822Y83.908
G2X47.451Y83.382I-1.455J0.634
G1X47.375Y83.307
X47.300Y83.232
X47.225Y83.156
G2X46.066Y82.653I-1.159J1.084
G1X45.540
G2X44.756Y82.860I0.000J1.588
G2X44.230Y83.232I0.634J1.455
G2X43.859Y83.757I1.084J1.159
G2X43.652Y84.541I1.380J0.784
G1Y85.067
G2X43.998Y86.058I1.588J0.000
G2X44.756Y86.748I1.391J-0.765
G1X44.775Y86.759
G2X45.377Y87.058I0.990J-1.241
G1X45.729Y87.159
X45.681Y87.547
Y88.149
G2X45.870Y88.900I1.588J0.000
G1X1.410
X1.357Y88.896
X1.353Y88.842
Y1.185
X1.357Y1.131
X1.410Y1.127
X47.867
G0Z5.080
G0X47.409Y1.128
G1Z-2.000F300.0
G1X1.393F1000.0
X1.357Y1.131
X1.353Y1.185
Y3.351
X47.844
X47.877Y3.464
X47.921Y3.667
X47.992Y3.865
X48.088Y4.051
X48.206Y4.221
X48.295Y4.364
X48.397Y4.496
X48.513Y4.616
X48.671Y4.763
X48.848Y4.888
X49.039Y4.987
X49.189Y5.063
X49.347Y5.141
X49.513Y5.202
X49.685Y5.243
X49.863Y5.362
X50.058Y5.456
X50.262Y5.522
X50.411Y5.573
X1.353
Y7.796
G0Z5.080
G0X63.460Y1.128
G1Z-2.000F300.0
G1X58.457F1000.0
X58.597Y1.288
X58.717Y1.468
X58.811Y1.663
X58.877Y1.867
X58.945Y2.065
X58.987Y2.271
X59.001Y2.480
Y2.931
X58.987Y3.140
X58.945Y3.346
X58.944Y3.351
X63.500
Y5.573
X56.246
G0Z5.080
G0X1.353Y7.796
G1Z-2.000F300.0
G1X63.500F1000.0
Y10.018
X1.353
Y12.241
X63.500
Y14.463
X1.353
Y16.686
X63.500
Y18.908
X1.353
Y21.131
X63.500
Y23.353
X1.353
Y25.576
X63.500
Y27.798
X1.353
Y30.021
X63.500
Y32.243
X1.353
Y34.466
X63.500
Y36.688
X1.353
Y38.911
X63.500
Y41.133
X1.353
Y43.356
X63.500
Y45.578
X1.353
Y47.801
X63.500
Y50.023
X1.353
Y52.246
X63.500
Y54.468
X1.353
Y56.691
X63.500
Y58.913
X1.353
Y61.136
X63.500
Y63.358
X1.353
Y65.581
X63.500
Y67.803
X1.353
Y70.026
X63.500
Y72.248
X1.353
Y74.471
X63.500
Y76.693
X1.353
Y78.916
X63.500
Y81.138
X46.957
X46.958Y81.140
X46.977Y81.385
Y81.911
X46.964Y82.112
X47.044Y82.306
X47.098Y82.508
X47.225Y82.630
X47.262Y82.666
X47.526Y82.785
X47.717Y82.885
X47.894Y83.009
X48.052Y83.156
X48.168Y83.277
X48.233Y83.361
X63.500
Y85.583
X51.777
X51.819Y85.669
X51.884Y85.864
X51.924Y86.066
X51.937Y86.270
Y86.646
X51.923Y86.855
X51.881Y87.061
X51.813Y87.259
X51.747Y87.462
X51.654Y87.655
X51.586Y87.787
X63.500
Y88.842
X63.496Y88.896
X63.460Y88.899
X50.657
G0Z5.080
G0X42.380Y81.138
G1Z-2.000F300.0
G1X1.353F1000.0
Y83.361
X43.146
X43.181Y83.530
X43.246Y83.719
X43.333Y83.898
X43.375Y83.988
X43.320Y84.168
X43.287Y84.354
X43.276Y84.541
Y85.143
X43.289Y85.346
X43.328Y85.548
X43.340Y85.583
X1.353
Y87.787
X45.403
X45.406Y87.789
X45.380Y88.073
Y88.149
X45.390Y88.329
X45.421Y88.508
X45.472Y88.682
X45.520Y88.899
X1.393
G0Z5.080
G0X47.409Y1.127
G1Z-2.000F300.0
G1Y1.278F1000.0
G2X47.532Y1.891I1.587J0.000
G2X47.735Y2.359I1.539J-0.388
G1X47.758Y2.417
X47.785Y2.512
Y2.931
G2X47.877Y3.464I1.588J0.000
G2X48.206Y4.221I1.570J-0.233
G2X48.513Y4.616I1.391J-0.765
G2X49.039Y4.987I1.159J-1.084
G1X49.189Y5.063
G2X49.685Y5.243I0.784J-1.380
G2X50.262Y5.522I0.965J-1.260
G2X50.875Y5.645I0.613J-1.464
G1X50.894
X51.238Y5.900
G2X51.840Y6.199I0.990J-1.241
G2X52.453Y6.322I0.613J-1.464
G1X52.630
G2X53.022Y6.566I1.026J-1.212
G1X53.172Y6.641
X53.322Y6.716
G2X54.107Y6.923I0.784J-1.380
G1X54.332
G2X55.116Y6.716I0.000J-1.588
G1X55.266Y6.641
G2X56.024Y5.950I-0.634J-1.455
G2X56.323Y5.345I-1.241J-0.990
G1X56.737
G2X57.521Y5.138I0.000J-1.588
G1X57.671Y5.063
G2X58.197Y4.691I-0.634J-1.455
G1X58.272Y4.616
G2X58.643Y4.091I-1.084J-1.159
G1X58.718Y3.940
X58.877Y3.544
G2X59.001Y2.931I-1.464J-0.613
G1Y2.480
G2X58.877Y1.867I-1.588J0.000
G2X58.456Y1.127I-1.539J0.388
G1X63.442
X63.496Y1.131
X63.500Y1.185
Y88.842
X63.496Y88.896
X63.442Y88.900
X50.657
X50.659Y88.825
Y88.679
G2X51.133Y88.331I-0.686J-1.432
G1X51.208Y88.256
X51.283Y88.181
G2X51.654Y87.655I-1.084J-1.159
G1X51.813Y87.259
G2X51.937Y86.646I-1.464J-0.613
G1Y86.270
G2X51.729Y85.486I-1.587J0.000
G1X51.654Y85.335
G2X51.283Y84.810I-1.455J0.634
G1X51.208Y84.735
X51.133Y84.659
G2X50.738Y84.353I-1.159J1.084
G2X50.136Y84.054I-0.990J1.241
G1X49.910Y83.979
X49.685Y83.904
G2X49.072Y83.781I-0.613J1.464
G1X48.696
X48.517Y83.791
X48.359Y83.551
G2X48.052Y83.156I-1.391J0.765
G2X47.526Y82.785I-1.159J1.084
G1X47.262Y82.666
X47.225Y82.630
X47.098Y82.508
X46.964Y82.112
X46.977Y81.911
Y81.385
G2X46.901Y80.901I-1.588J0.000
G2X46.778Y80.321I-1.587J0.033
G2X46.323Y79.549I-1.539J0.388
G2X45.164Y79.046I-1.159J1.084
G1X44.563
G2X43.779Y79.253I0.000J1.587
G1X43.628Y79.329
G2X43.103Y79.700I0.634J1.455
G2X42.796Y80.095I1.084J1.159
G1X42.581Y80.451
G2X42.374Y81.235I1.380J0.784
G1Y81.611
G2X42.497Y82.224I1.588J0.000
G1X42.656Y82.620
X42.871Y82.976
G2X43.141Y83.336I1.391J-0.765
G2X43.333Y83.898I1.572J-0.222
G1X43.375Y83.988
G2X43.276Y84.541I1.488J0.553
G1Y85.143
G2X43.483Y85.927I1.588J0.000
G2X43.854Y86.452I1.455J-0.634
G1X43.929Y86.528
X44.004Y86.603
X44.213Y86.790
G2X44.530Y87.204I1.402J-0.745
G1X44.606Y87.279
G2X45.131Y87.650I1.159J-1.084
G1X45.282Y87.725
X45.406Y87.789
X45.380Y88.073
Y88.149
G2X45.472Y88.682I1.587J0.000
G1X45.520Y88.900
X1.410
X1.357Y88.896
X1.353Y88.842
Y1.185
X1.357Y1.131
X1.410Y1.127
X47.409
G0Z5.080
G0X13.220Y1.128
G1Z-3.000F300.0
G1X1.393F1000.0
X1.357Y1.131
X1.353Y1.185
Y3.351
X11.677
X11.652Y3.479
X11.639Y3.682
Y3.983
X11.652Y4.186
X11.691Y4.388
X11.757Y4.583
X11.846Y4.767
X11.945Y4.958
X12.070Y5.135
X12.217Y5.293
X12.374Y5.440
X12.551Y5.565
X12.569Y5.573
G0Z5.080
G0X47.108Y1.128
G1Z-3.000F300.0
G1X15.261F1000.0
X15.433Y1.250
X15.588Y1.396
X15.733Y1.551
X15.859Y1.728
X15.960Y1.923
X16.033Y2.130
X16.077Y2.342
X16.091Y2.555
Y2.931
X16.073Y3.173
X16.031Y3.351
X47.461
X47.256Y3.420
X47.056Y3.521
X46.872Y3.649
X46.710Y3.800
X46.635Y3.875
X46.488Y4.033
X46.363Y4.210
X46.263Y4.401
X46.174Y4.585
X46.109Y4.780
X46.069Y4.982
X46.056Y5.185
Y5.260
X46.069Y5.464
X46.091Y5.573
X14.710
X14.536Y5.664
X14.353Y5.753
X14.158Y5.818
X13.956Y5.858
X13.752Y5.871
X13.527
X13.323Y5.858
X13.121Y5.818
X12.926Y5.753
X12.743Y5.664
X12.569Y5.573
X1.353
Y7.796
G0Z5.080
G0X12.569Y5.573
G1Z-3.000F300.0
G1X1.353F1000.0
Y7.796
G0Z5.080
G0X58.871Y1.128
G1Z-3.000F300.0
G1X63.460F1000.0
X63.496Y1.131
X63.500Y1.185
Y3.351
X59.218
X59.178Y3.469
X59.112Y3.672
X59.019Y3.865
X58.944Y4.015
X58.869Y4.166
X58.769Y4.357
X58.644Y4.534
X58.497Y4.691
X58.422Y4.767
X58.347Y4.842
X58.272Y4.917
X58.114Y5.064
X57.938Y5.189
X57.746Y5.288
X57.553Y5.381
X57.350Y5.447
X57.181Y5.507
X57.007Y5.547
X56.829Y5.568
X56.827Y5.573
X63.500
Y7.796
X1.353
X63.500
Y10.018
X18.947
Y10.370
X18.934Y10.574
X18.894Y10.776
X18.829Y10.971
X18.740Y11.155
X18.645Y11.338
X18.525Y11.510
X18.383Y11.666
X18.223Y11.801
X18.049Y11.912
X17.875Y12.033
X17.684Y12.130
X17.480Y12.202
X17.286Y12.241
X48.611
Y12.443
X48.555Y12.681
X48.536Y12.925
Y13.151
X48.550Y13.360
X48.591Y13.566
X48.659Y13.764
X48.726Y13.968
X48.818Y14.160
X48.900Y14.322
X48.993Y14.463
G0Z5.080
G0X53.057Y12.241
G1Z-3.000F300.0
G1X63.500F1000.0
Y14.463
X53.701
G0Z5.080
G0X14.795Y10.018
G1Z-3.000F300.0
G1X1.353F1000.0
Y12.241
X16.382
G0Z5.080
G0X48.993Y14.463
G1Z-3.000F300.0
G1X1.353F1000.0
Y16.686
X63.500
Y18.908
X1.353
Y21.131
X63.500
Y23.353
X1.353
Y25.576
X63.500
Y27.798
X1.353
Y30.021
X63.500
Y32.243
X1.353
Y34.466
X63.500
Y36.688
X1.353
Y38.911
X63.500
Y41.133
X1.353
Y43.356
X63.500
Y45.578
X1.353
Y47.801
X63.500
Y50.023
X1.353
Y52.246
X63.500
Y54.468
X1.353
Y56.691
X63.500
Y58.913
X1.353
Y61.136
X63.500
Y63.358
X1.353
Y65.581
X63.500
Y67.803
X1.353
Y70.026
X63.500
Y72.248
X1.353
Y74.471
X63.500
Y76.693
X1.353
Y78.916
X43.386
X43.335Y78.951
X43.178Y79.099
X43.062Y79.219
X42.959Y79.351
X42.871Y79.493
X42.738Y79.688
X42.727Y79.700
X42.652Y79.775
X42.577Y79.850
X42.472Y79.958
X42.300Y80.028
X42.138Y80.117
X41.951Y80.158
X41.770Y80.222
X41.556Y80.292
X41.352Y80.394
X41.164Y80.523
X40.999Y80.677
X40.923Y80.752
X40.778Y80.907
X40.652Y81.085
X40.624Y81.138
X1.353
Y83.361
X40.914
X40.923Y83.371
X40.999Y83.446
X41.154Y83.592
X41.331Y83.717
X41.526Y83.818
X41.733Y83.892
X41.945Y83.935
X42.158Y83.950
X42.383
X42.617Y83.932
X42.845Y83.881
X42.936Y84.085
X43.054Y84.273
X43.010Y84.435
X42.984Y84.600
X42.975Y84.767
Y84.992
X42.989Y85.201
X43.030Y85.408
X43.091Y85.583
X1.353
Y87.787
X44.589
X44.606Y87.805
X44.681Y87.880
X44.756Y87.955
X44.909Y88.099
X45.079Y88.221
Y88.599
X45.108Y88.899
X1.393
G0Z5.080
G0X46.659Y78.916
G1Z-3.000F300.0
G1X63.500F1000.0
Y81.138
X49.931
X50.015Y81.311
X50.080Y81.506
X50.120Y81.708
X50.133Y81.911
Y82.137
X50.120Y82.340
X50.080Y82.542
X50.015Y82.737
X49.926Y82.921
X49.827Y83.112
X49.702Y83.289
X49.635Y83.361
X63.500
Y85.583
X52.532
X52.538Y85.669
Y86.345
X52.524Y86.556
X52.481Y86.767
X52.410Y86.970
X52.312Y87.161
X52.191Y87.335
X52.180Y87.355
X52.105Y87.505
X52.010Y87.690
X51.942Y87.787
X63.500
Y88.842
X63.496Y88.896
X63.460Y88.899
X51.259
G0Z5.080
G0X13.222Y1.127
G1Z-3.000F300.0
G1X12.893Y1.396F1000.0
G2X12.435Y2.178I1.084J1.159
G1X12.217Y2.372
G2X11.846Y2.898I1.084J1.159
G2X11.639Y3.682I1.380J0.784
G1Y3.983
G2X11.846Y4.767I1.588J0.000
G2X12.217Y5.293I1.455J-0.634
G2X12.743Y5.664I1.159J-1.084
G2X13.527Y5.871I0.784J-1.380
G1X13.752
G2X14.536Y5.664I0.000J-1.588
G2X15.062Y5.293I-0.634J-1.455
G2X15.433Y4.767I-1.084J-1.159
G2X15.639Y4.040I-1.380J-0.784
G2X16.091Y2.931I-1.136J-1.109
G1Y2.555
G2X15.588Y1.396I-1.588J0.000
G1X15.259Y1.127
X47.108
Y1.278
G2X47.232Y1.891I1.588J0.000
G2X47.613Y2.589I1.539J-0.388
G1X47.634Y2.662
Y3.053
X47.466Y3.349
G2X46.710Y3.800I0.404J1.535
G1X46.635Y3.875
G2X46.263Y4.401I1.084J1.159
G2X46.056Y5.185I1.380J0.784
G1Y5.260
G2X46.263Y6.044I1.588J0.000
G2X46.635Y6.570I1.455J-0.634
G2X47.794Y7.073I1.159J-1.084
G1X48.170
G2X49.329Y6.570I0.000J-1.588
G2X49.734Y5.960I-1.084J-1.159
G1X50.143Y5.777
X50.317Y5.969
X50.392Y6.044
G2X50.918Y6.415I1.159J-1.084
G1X50.937Y6.426
X51.163Y6.576
X51.519Y6.791
G2X52.303Y6.998I0.784J-1.380
G1X52.698
X52.722Y7.021
G2X53.247Y7.392I1.159J-1.084
G2X54.031Y7.599I0.784J-1.380
G1X54.482
G2X55.266Y7.392I0.000J-1.588
G1X55.417Y7.317
G2X55.942Y6.946I-0.634J-1.455
G1X56.017Y6.871
X56.093Y6.796
G2X56.382Y6.432I-1.084J-1.159
G2X56.773Y5.723I-1.148J-1.096
G1X56.829Y5.568
G2X57.350Y5.447I-0.092J-1.585
G1X57.746Y5.288
G2X58.272Y4.917I-0.634J-1.455
G1X58.347Y4.842
X58.422Y4.767
X58.497Y4.691
G2X58.869Y4.166I-1.084J-1.159
G1X58.944Y4.015
X59.019Y3.865
X59.178Y3.469
G2X59.301Y2.856I-1.464J-0.613
G1Y2.555
G2X59.221Y2.058I-1.587J0.000
G2X59.019Y1.395I-1.583J0.121
G1X58.870Y1.127
X63.442
X63.496Y1.131
X63.500Y1.185
Y88.842
X63.496Y88.896
X63.442Y88.900
X51.259
X51.260Y88.825
Y88.653
X51.358Y88.557
X51.433Y88.481
X51.509Y88.406
G2X51.880Y87.881I-1.084J-1.159
G1X51.891Y87.861
X52.105Y87.505
X52.180Y87.355
X52.191Y87.335
G2X52.538Y86.345I-1.241J-0.990
G1Y85.669
G2X52.191Y84.679I-1.588J0.000
G2X51.434Y83.988I-1.391J0.765
G1X51.284Y83.913
G2X50.499Y83.705I-0.784J1.380
G1X50.124
X49.823Y83.734
X49.755Y83.723
X49.361Y83.636
X49.480Y83.522
X49.555Y83.446
G2X49.926Y82.921I-1.084J-1.159
G2X50.133Y82.137I-1.380J-0.784
G1Y81.911
G2X49.926Y81.127I-1.588J0.000
G2X49.104Y80.305I-1.455J0.634
G2X48.320Y80.098I-0.784J1.380
G1X47.944
G2X47.413Y80.190I0.000J1.588
G2X47.221Y79.624I-1.572J0.218
G2X46.849Y79.099I-1.455J0.634
G1X46.774Y79.023
G2X46.249Y78.652I-1.159J1.084
G1X45.852Y78.493
G2X45.239Y78.370I-0.613J1.464
G1X44.938
G2X44.405Y78.462I0.000J1.587
G2X43.854Y78.652I0.233J1.570
G1X43.703Y78.727
G2X43.178Y79.099I0.634J1.455
G2X42.871Y79.493I1.084J1.159
G1X42.738Y79.688
X42.727Y79.700
X42.652Y79.775
X42.577Y79.850
X42.472Y79.958
X42.138Y80.117
X41.770Y80.222
G2X40.999Y80.677I0.388J1.539
G1X40.923Y80.752
G2X40.420Y81.911I1.084J1.159
G1Y82.212
G2X40.923Y83.371I1.588J0.000
G1X40.999Y83.446
G2X42.158Y83.950I1.159J-1.084
G1X42.383
G2X42.845Y83.881I0.000J-1.588
G1X43.054Y84.273
G2X42.975Y84.767I1.509J0.493
G1Y84.992
G2X43.098Y85.606I1.588J0.000
G1X43.258Y86.002
G2X43.629Y86.528I1.455J-0.634
G1X43.704Y86.603
X43.779Y86.678
X43.854Y86.753
X43.929Y86.828
X44.078Y86.968
X44.084Y86.979
X44.159Y87.129
X44.234Y87.279
G2X44.606Y87.805I1.455J-0.634
G1X44.681Y87.880
X44.756Y87.955
X45.079Y88.221
Y88.599
X45.108Y88.900
X1.410
X1.357Y88.896
X1.353Y88.842
Y1.185
X1.357Y1.131
X1.410Y1.127
X13.222
G0Z5.080
G0X18.049Y11.912
G1Z-3.000F300.0
G2X18.740Y11.155I-0.765J-1.391F1000.0
G2X18.947Y10.370I-1.380J-0.784
G1Y9.995
G2X18.740Y9.211I-1.588J0.000
G2X18.049Y8.453I-1.455J0.634
G2X17.059Y8.107I-0.990J1.241
G1X16.683
G2X15.693Y8.453I0.000J1.588
G2X15.002Y9.211I0.765J1.391
G2X14.795Y9.995I1.380J0.784
G1Y10.446
G2X15.002Y11.230I1.588J0.000
G2X15.824Y12.051I1.455J-0.634
G2X16.608Y12.259I0.784J-1.380
G1X17.059
G2X18.049Y11.912I0.000J-1.588
G0Z5.080
G0X50.241Y16.109
G1Z-3.000F300.0
G2X51.025Y16.316I0.784J-1.380F1000.0
G1X51.702
G2X52.692Y15.970I0.000J-1.588
G2X53.087Y15.663I-0.765J-1.391
G2X53.458Y15.137I-1.084J-1.159
G1X53.617Y14.741
G2X53.740Y14.128I-1.464J-0.613
G1Y13.902
G2X53.648Y13.369I-1.588J0.000
G2X53.162Y12.442I-1.570J0.233
G1X53.154Y12.434
X53.082Y12.292
X53.007Y12.141
G2X52.636Y11.616I-1.455J0.634
G1X52.561Y11.541
X52.486Y11.465
X52.410Y11.390
X52.335Y11.315
G2X51.810Y10.944I-1.159J1.084
G1X51.422Y10.787
G2X50.650Y10.586I-0.773J1.387
G1X50.199
G2X48.611Y12.174I0.000J1.588
G1Y12.443
G2X48.536Y12.925I1.512J0.483
G1Y13.151
G2X48.659Y13.764I1.588J0.000
G1X48.818Y14.160
X48.999Y14.472
G2X49.194Y15.062I1.576J-0.194
G2X49.565Y15.588I1.455J-0.634
G1X49.641Y15.663
X49.716Y15.738
G2X50.241Y16.109I1.159J-1.084
G0Z5.080
G0X12.144Y1.128
G1Z-4.000F300.0
G1X1.393F1000.0
X1.357Y1.131
X1.353Y1.185
Y3.351
X10.662
Y3.607
X10.676Y3.820
X10.720Y4.032
X10.793Y4.239
X10.894Y4.434
X11.019Y4.611
X11.165Y4.767
X11.240Y4.842
X11.315Y4.917
X11.493Y5.080
X11.620Y5.368
X11.719Y5.559
X11.729Y5.573
X1.353
Y7.796
X14.230
X14.208Y7.905
X14.194Y8.116
Y8.717
X14.207Y8.921
X14.246Y9.123
X14.312Y9.318
X14.401Y9.501
X14.460Y9.623
X14.444Y9.664
X14.326Y9.887
X14.262Y10.018
X1.353
Y12.241
X14.526
X14.543Y12.266
X14.697Y12.432
X14.772Y12.507
X14.929Y12.654
X15.106Y12.779
X15.298Y12.878
X15.481Y12.967
X15.676Y13.032
X15.878Y13.072
X16.082Y13.085
X16.457
X16.661Y13.072
X16.863Y13.032
X17.058Y12.967
X17.242Y12.878
X17.392Y12.803
X17.553Y12.721
X17.705Y12.621
X17.844Y12.505
X18.036Y12.441
X18.218Y12.352
X18.410Y12.253
X18.426Y12.241
G0Z5.080
G0X48.520Y7.796
G1Z-4.000F300.0
G1X53.155F1000.0
X53.290Y7.861
X53.493Y7.927
X53.537Y7.945
X53.647Y8.091
X53.774Y8.223
X53.849Y8.299
X53.924Y8.374
X53.999Y8.449
X54.155Y8.594
X54.332Y8.720
X54.527Y8.821
X54.733Y8.894
X54.946Y8.938
X55.159Y8.952
X55.534
X55.738Y8.939
X55.940Y8.899
X56.135Y8.834
X56.318Y8.745
X56.469Y8.670
X56.660Y8.570
X56.837Y8.446
X56.994Y8.299
X57.070Y8.223
X57.145Y8.148
X57.292Y7.991
X57.417Y7.814
X57.426Y7.796
G0Z5.080
G0X63.460Y1.128
G1Z-4.000F300.0
G1X59.188F1000.0
X59.244Y1.245
X59.333Y1.428
X59.399Y1.623
X59.438Y1.825
X59.451Y2.029
Y2.072
X59.500Y2.268
X59.700Y2.448
X59.847Y2.605
X59.972Y2.782
X60.071Y2.973
X60.164Y3.166
X60.224Y3.351
X63.500
Y5.573
X59.909
X59.847Y5.661
X59.700Y5.819
X59.542Y5.966
X59.365Y6.091
X59.174Y6.190
X58.999Y6.276
X58.814Y6.339
X58.623Y6.380
X58.449Y6.431
X58.270Y6.462
X58.089Y6.472
X58.014
X57.720Y6.445
X57.723Y6.538
Y6.838
X57.710Y7.042
X57.670Y7.244
X57.605Y7.439
X57.516Y7.623
X57.426Y7.796
X63.500
Y10.018
G0Z5.080
G0X57.426Y7.796
G1Z-4.000F300.0
G1X63.500F1000.0
Y10.018
X50.994
X51.038Y10.033
X51.241Y10.100
X51.434Y10.192
X51.625Y10.292
X51.802Y10.417
X51.959Y10.564
X52.035Y10.639
X52.110Y10.714
X52.185Y10.789
X52.260Y10.864
X52.335Y10.939
X52.410Y11.014
X52.486Y11.090
X52.561Y11.165
X52.636Y11.240
X52.711Y11.315
X52.827Y11.436
X52.930Y11.568
X53.018Y11.710
X53.137Y11.881
X53.232Y12.066
X53.304Y12.208
X53.312Y12.217
X53.335Y12.241
G0Z5.080
G0X63.500Y10.018
G1Z-4.000F300.0
G1X50.994F1000.0
X50.839Y9.965
X50.633Y9.924
X50.424Y9.910
X49.823
X49.610Y9.924
X49.398Y9.968
X49.256Y10.018
G0Z5.080
G0X53.335Y12.241
G1Z-4.000F300.0
G1X63.500F1000.0
Y14.463
X53.954
X53.924Y14.638
X53.873Y14.812
X53.828Y15.018
X53.756Y15.219
X53.656Y15.410
X53.532Y15.584
X53.387Y15.738
X53.312Y15.813
X53.237Y15.888
X53.162Y15.964
X53.079Y16.046
X52.980Y16.235
X52.856Y16.409
X52.711Y16.565
X52.636Y16.640
X52.586Y16.686
X63.500
Y18.908
G0Z5.080
G0X16.074Y1.128
G1Z-4.000F300.0
G1X46.958F1000.0
Y1.421
X46.720Y1.452
X46.485Y1.519
X46.263Y1.623
X46.060Y1.759
X45.883Y1.922
X45.808Y1.997
X45.733Y2.072
X45.658Y2.147
X45.504Y2.312
X45.375Y2.500
X45.273Y2.704
X45.203Y2.919
X45.135Y3.117
X45.093Y3.323
X45.091Y3.351
X16.666
X16.635Y3.503
X16.564Y3.706
X16.466Y3.897
X16.346Y4.071
X16.258Y4.213
X16.155Y4.346
X16.039Y4.466
X16.037Y4.468
X15.975Y4.654
X15.890Y4.831
X15.825Y5.029
X15.734Y5.218
X15.634Y5.409
X15.518Y5.573
X45.505
X45.535Y5.682
X45.570Y5.912
X45.638Y6.135
X45.737Y6.345
X45.813Y6.495
X45.896Y6.660
X45.998Y6.814
X46.117Y6.955
X46.227Y7.160
X46.368Y7.351
X46.537Y7.519
X46.728Y7.659
X46.935Y7.768
X46.993Y7.796
X18.850
X18.858Y7.837
X18.872Y8.041
Y8.492
X18.854Y8.724
X19.001Y8.920
X19.115Y9.135
X19.190Y9.286
X19.280Y9.469
X19.345Y9.664
X19.384Y9.866
X19.394Y10.018
X22.039
X21.991Y10.112
X21.901Y10.296
X21.836Y10.491
X21.797Y10.693
X21.784Y10.896
Y11.422
X21.798Y11.635
X21.842Y11.848
X21.915Y12.054
X22.011Y12.241
X18.426
G0Z5.080
G0X49.256Y10.018
G1Z-4.000F300.0
G1X25.944F1000.0
X25.954Y10.037
X26.043Y10.221
X26.108Y10.416
X26.148Y10.618
X26.161Y10.821
Y11.272
X26.148Y11.476
X26.108Y11.678
X26.043Y11.873
X25.954Y12.056
X25.858Y12.241
X47.715
X47.710Y12.324
Y12.550
X47.723Y12.753
X47.762Y12.955
X47.828Y13.150
X47.917Y13.334
X47.992Y13.484
X48.068Y13.637
X48.161Y13.781
X48.268Y13.914
X48.189Y14.088
X48.132Y14.273
X48.097Y14.462
X48.097Y14.463
X1.353
Y16.686
X48.785
G0Z5.080
G0X63.500Y18.908
G1Z-4.000F300.0
G1X1.353F1000.0
Y21.131
X63.500
Y23.353
X1.353
Y25.576
X63.500
Y27.798
X1.353
Y30.021
X63.500
Y32.243
X1.353
Y34.466
X63.500
Y36.688
X1.353
Y38.911
X63.500
Y41.133
X1.353
Y43.356
X63.500
Y45.578
X1.353
Y47.801
X63.500
Y50.023
X1.353
Y52.246
X63.500
Y54.468
X1.353
Y56.691
X63.500
Y58.913
X1.353
Y61.136
X63.500
Y63.358
X1.353
Y65.581
X63.500
Y67.803
X1.353
Y70.026
X63.500
Y72.248
X1.353
Y74.471
X63.500
Y76.693
X45.641
X45.722Y76.769
X45.797Y76.844
X45.872Y76.919
X46.020Y77.077
X46.144Y77.254
X46.244Y77.445
X46.333Y77.628
X46.398Y77.823
X46.438Y78.025
X46.451Y78.229
Y78.414
X46.594Y78.502
X46.728Y78.606
X46.849Y78.723
X46.925Y78.798
X47.000Y78.873
X47.043Y78.916
X51.369
X51.322Y78.982
X51.223Y79.173
X51.134Y79.357
X51.069Y79.552
X51.029Y79.754
X51.016Y79.957
Y80.934
X51.025Y81.102
X51.031Y81.138
X50.873
X50.885Y81.310
Y82.137
X50.871Y82.340
X50.832Y82.542
X50.767Y82.737
X50.677Y82.921
X50.602Y83.071
X50.489Y83.285
X50.432Y83.361
X52.616
X52.629Y83.366
X52.842Y83.409
X53.054Y83.424
X53.505
X53.718Y83.409
X53.931Y83.366
X53.944Y83.361
G0Z5.080
G0X63.500Y78.916
G1Z-4.000F300.0
G1X54.890F1000.0
X54.937Y78.982
X55.036Y79.173
X55.122Y79.349
X55.186Y79.534
X55.226Y79.725
X55.270Y79.870
X55.338Y80.068
X55.380Y80.274
X55.393Y80.483
Y81.138
X63.500
Y83.361
X53.944
G0Z5.080
G0X63.500Y85.583
G1Z-4.000F300.0
G1X52.838F1000.0
X52.838Y85.593
Y86.270
X52.825Y86.473
X52.786Y86.675
X52.720Y86.870
X52.631Y87.054
X52.538Y87.236
Y87.322
X52.525Y87.525
X52.485Y87.727
X52.465Y87.787
X63.500
Y88.842
X63.496Y88.896
X63.460Y88.899
X51.937
G0Z5.080
G0X38.295Y76.693
G1Z-4.000F300.0
G1X1.353F1000.0
Y78.916
X39.434
X39.478Y78.932
X39.691Y78.976
X39.904Y78.990
X40.129
X40.353Y78.974
X40.576Y78.926
X40.602Y78.916
X41.336
G0Z5.080
G0X40.023Y81.138
G1Z-4.000F300.0
G1X1.353F1000.0
Y83.361
X39.872
X39.876Y83.371
X39.972Y83.557
X40.090Y83.728
X40.202Y83.902
X40.336Y84.063
X40.492Y84.205
X40.664Y84.324
X40.848Y84.419
X40.998Y84.494
X41.182Y84.583
X41.377Y84.648
X41.579Y84.688
X41.782Y84.701
X42.158
X42.264Y84.698
X42.201Y84.890
X42.162Y85.090
X42.149Y85.293
Y85.583
X1.353
Y87.787
X43.651
X43.676Y87.796
X43.879Y87.840
X44.210Y87.920
X44.224Y87.936
X44.312Y88.078
X44.415Y88.211
X44.530Y88.331
X44.606Y88.406
X44.779Y88.566
Y88.899
X1.393
G0Z5.080
G0X12.145Y1.127
G1Z-4.000F300.0
G1X11.996Y1.395F1000.0
X11.910Y1.571
G2X11.240Y1.997I0.489J1.510
G1X11.165Y2.072
G2X10.662Y3.231I1.084J1.159
G1Y3.607
G2X11.165Y4.767I1.588J0.000
G1X11.240Y4.842
X11.315Y4.917
X11.493Y5.080
X11.620Y5.368
G2X11.991Y5.894I1.455J-0.634
G1X12.067Y5.969
G2X12.592Y6.340I1.159J-1.084
G2X13.376Y6.547I0.784J-1.380
G1X13.827
G2X14.611Y6.340I0.000J-1.588
G2X15.137Y5.969I-0.634J-1.455
G1X15.212Y5.894
X15.287Y5.819
X15.362Y5.744
G2X15.734Y5.218I-1.084J-1.159
G1X15.890Y4.831
X16.037Y4.468
X16.039Y4.466
G2X16.346Y4.071I-1.084J-1.159
G2X16.692Y3.081I-1.241J-0.990
G1Y2.480
G2X16.485Y1.696I-1.588J0.000
G2X16.114Y1.170I-1.455J0.634
G1X16.072Y1.127
X46.958
Y1.421
G2X45.883Y1.922I0.085J1.585
G1X45.808Y1.997
X45.733Y2.072
X45.658Y2.147
G2X45.203Y2.919I1.084J1.159
G2X45.079Y3.532I1.464J0.613
G1Y3.908
G2X45.203Y4.521I1.588J0.000
G2X45.456Y5.064I1.539J-0.388
G1X45.455Y5.110
Y5.185
G2X45.535Y5.682I1.588J0.000
G2X45.737Y6.345I1.583J-0.121
G1X45.813Y6.495
G2X46.117Y6.955I1.455J-0.634
G2X46.935Y7.768I1.452J-0.642
G2X47.719Y7.975I0.784J-1.380
G1X47.794
G2X48.578Y7.768I0.000J-1.588
G2X49.037Y7.464I-0.634J-1.455
G2X49.555Y7.096I-0.642J-1.452
G1X49.630Y7.021
G2X49.937Y6.626I-1.084J-1.159
G1X50.008Y6.529
X50.081Y6.490
X50.196Y6.435
X50.542Y6.641
X50.692Y6.716
X50.834Y6.787
G2X51.293Y7.092I1.093J-1.151
G1X51.444Y7.167
G2X52.228Y7.374I0.784J-1.380
G1X52.547
X52.571Y7.397
G2X53.097Y7.768I1.159J-1.084
G1X53.493Y7.927
X53.537Y7.945
X53.774Y8.223
X53.849Y8.299
X53.924Y8.374
X53.999Y8.449
G2X55.159Y8.952I1.159J-1.084
G1X55.534
G2X56.318Y8.745I0.000J-1.588
G1X56.469Y8.670
G2X56.994Y8.299I-0.634J-1.455
G1X57.070Y8.223
X57.145Y8.148
G2X57.516Y7.623I-1.084J-1.159
G2X57.723Y6.838I-1.380J-0.784
G1Y6.538
X57.720Y6.445
X58.014Y6.472
X58.089
G2X58.623Y6.380I0.000J-1.588
G2X59.174Y6.190I-0.233J-1.570
G2X59.700Y5.819I-0.634J-1.455
G2X60.071Y5.293I-1.084J-1.159
G1X60.230Y4.897
G2X60.353Y4.283I-1.464J-0.613
G1Y3.983
G2X60.230Y3.370I-1.587J0.000
G1X60.071Y2.973
G2X59.700Y2.448I-1.455J0.634
G1X59.500Y2.268
X59.451Y2.072
Y2.029
G2X59.244Y1.245I-1.588J0.000
G1X59.187Y1.127
X63.442
X63.496Y1.131
X63.500Y1.185
Y88.842
X63.496Y88.896
X63.442Y88.900
X51.937
Y88.656
X51.959Y88.632
G2X52.331Y88.106I-1.084J-1.159
G2X52.538Y87.322I-1.380J-0.784
G1Y87.236
X52.631Y87.054
G2X52.838Y86.270I-1.380J-0.784
G1Y85.593
G2X52.631Y84.809I-1.588J0.000
G2X52.260Y84.284I-1.455J0.634
G1X52.185Y84.209
G2X51.790Y83.902I-1.159J1.084
G2X51.188Y83.603I-0.990J1.241
G2X50.575Y83.480I-0.613J1.464
G1X50.344
G2X50.602Y83.071I-1.197J-1.043
G1X50.677Y82.921
G2X50.885Y82.137I-1.380J-0.784
G1Y81.310
G2X50.677Y80.526I-1.588J0.000
G1X50.602Y80.376
G2X49.911Y79.618I-1.455J0.634
G1X49.555Y79.404
G2X48.771Y79.197I-0.784J1.380
G1X47.944
G2X47.362Y79.307I0.000J1.587
G2X47.075Y78.948I-1.371J0.800
G1X47.000Y78.873
X46.925Y78.798
X46.849Y78.723
G2X46.451Y78.414I-1.159J1.084
G1Y78.229
G2X46.244Y77.445I-1.588J0.000
G2X45.872Y76.919I-1.455J0.634
G1X45.797Y76.844
X45.722Y76.769
G2X45.197Y76.398I-1.159J1.084
G1X45.046Y76.323
X44.903Y76.250
X44.820Y76.168
X44.745Y76.093
G2X44.220Y75.721I-1.159J1.084
G1X44.069Y75.646
G2X43.285Y75.439I-0.784J1.380
G1X43.060
G2X42.446Y75.562I0.000J1.587
G2X41.675Y76.017I0.388J1.539
G1X41.600Y76.093
X41.525Y76.168
X41.503Y76.189
X41.288Y75.942
G2X40.129Y75.439I-1.159J1.084
G1X39.904
G2X38.744Y75.942I0.000J1.587
G2X38.241Y77.102I1.084J1.159
G1Y77.327
G2X38.744Y78.487I1.588J0.000
G2X39.904Y78.990I1.159J-1.084
G1X40.129
G2X41.171Y78.600I0.000J-1.588
G1X41.229Y78.713
G2X41.600Y79.238I1.455J-0.634
G1X41.629Y79.268
X41.713Y79.660
X41.620Y79.696
G2X41.018Y79.994I0.388J1.539
G2X40.623Y80.301I0.765J1.391
G1X40.548Y80.376
X40.472Y80.451
G2X40.101Y80.977I1.084J1.159
G1X39.945Y81.364
X39.792Y81.749
G2X39.669Y82.362I1.464J0.613
G1Y82.437
G2X39.761Y82.971I1.588J0.000
G2X40.090Y83.728I1.570J-0.233
G2X40.848Y84.419I1.391J-0.765
G1X40.998Y84.494
G2X41.782Y84.701I0.784J-1.380
G1X42.158
X42.264Y84.698
G2X42.149Y85.293I1.472J0.595
G1Y85.894
G2X42.495Y86.884I1.588J0.000
G2X43.122Y87.511I1.391J-0.765
G2X43.879Y87.840I0.990J-1.241
G1X44.210Y87.920
X44.224Y87.936
G2X44.530Y88.331I1.391J-0.765
G1X44.606Y88.406
X44.779Y88.566
Y88.900
X1.410
X1.357Y88.896
X1.353Y88.842
Y1.185
X1.357Y1.131
X1.410Y1.127
X12.145
G0Z5.080
G0X16.833Y5.702
G1Z-4.000F300.0
G1X16.457F1000.0
G2X15.298Y6.205I0.000J1.588
G2X15.008Y6.569I1.084J1.159
G1X14.997Y6.581
X14.922Y6.656
X14.847Y6.731
G2X14.540Y7.126I1.084J1.159
G2X14.194Y8.116I1.241J0.990
G1Y8.717
G2X14.401Y9.501I1.588J0.000
G1X14.460Y9.623
X14.444Y9.664
X14.326Y9.887
G2X14.118Y10.671I1.380J0.784
G1Y11.047
G2X14.242Y11.660I1.588J0.000
G2X14.697Y12.432I1.539J-0.388
G1X14.772Y12.507
G2X15.298Y12.878I1.159J-1.084
G2X16.082Y13.085I0.784J-1.380
G1X16.457
G2X17.242Y12.878I0.000J-1.588
G1X17.392Y12.803
G2X17.844Y12.505I-0.634J-1.455
G1X18.218Y12.352
G2X18.744Y11.981I-0.634J-1.455
G1X18.819Y11.906
G2X19.274Y11.134I-1.084J-1.159
G2X19.398Y10.521I-1.464J-0.613
G1Y10.070
G2X19.190Y9.286I-1.588J0.000
G1X19.115Y9.135
G2X18.854Y8.724I-1.455J0.634
G1X18.872Y8.492
Y8.041
G2X18.664Y7.257I-1.588J0.000
G1X18.589Y7.106
X18.369Y6.743
G2X17.993Y6.205I-1.461J0.621
G2X16.833Y5.702I-1.159J1.084
G0Z5.080
G0X24.661Y13.187
G1Z-4.000F300.0
G2X25.432Y12.732I-0.388J-1.539F1000.0
G1X25.507Y12.657
X25.583Y12.582
G2X25.954Y12.056I-1.084J-1.159
G2X26.161Y11.272I-1.380J-0.784
G1Y10.821
G2X25.954Y10.037I-1.588J0.000
G2X25.583Y9.512I-1.455J0.634
G1X25.507Y9.436
G2X24.982Y9.065I-1.159J1.084
G2X24.198Y8.858I-0.784J1.380
G1X23.822
G2X23.038Y9.065I0.000J1.588
G2X22.512Y9.436I0.634J1.455
G1X22.437Y9.512
X22.362Y9.587
G2X21.991Y10.112I1.084J1.159
G2X21.784Y10.896I1.380J0.784
G1Y11.422
G2X22.287Y12.582I1.588J0.000
G1X22.362Y12.657
X22.437Y12.732
G2X23.209Y13.187I1.159J-1.084
G2X23.822Y13.311I0.613J-1.464
G1X24.047
G2X24.661Y13.187I0.000J-1.588
G0Z5.080
G0X53.873Y13.369
G1Z-4.000F300.0
G1X53.767Y12.988F1000.0
G2X53.312Y12.217I-1.539J0.388
G1X53.304Y12.208
X53.232Y12.066
X53.018Y11.710
G2X52.711Y11.315I-1.391J0.765
G1X52.636Y11.240
X52.561Y11.165
X52.486Y11.090
X52.410Y11.014
X52.335Y10.939
X52.260Y10.864
X52.185Y10.789
X52.110Y10.714
X52.035Y10.639
X51.959Y10.564
G2X51.434Y10.192I-1.159J1.084
G1X51.038Y10.033
G2X50.424Y9.910I-0.613J1.464
G1X49.823
G2X48.664Y10.413I0.000J1.588
G1X48.588Y10.488
X48.513Y10.564
X48.438Y10.639
X48.363Y10.714
G2X47.908Y11.485I1.084J1.159
G1X47.833Y11.711
G2X47.710Y12.324I1.464J0.613
G1Y12.550
G2X47.917Y13.334I1.588J0.000
G1X47.992Y13.484
G2X48.268Y13.914I1.455J-0.634
G2X48.085Y14.654I1.404J0.740
G1Y15.255
G2X48.292Y16.039I1.588J0.000
G2X48.664Y16.565I1.455J-0.634
G1X48.739Y16.640
X48.814Y16.715
G2X49.340Y17.086I1.159J-1.084
G1X49.736Y17.245
G2X50.349Y17.369I0.613J-1.464
G1X50.650
G2X51.183Y17.276I0.000J-1.588
G1X51.447Y17.214
G2X52.110Y17.011I-0.121J-1.583
G2X52.636Y16.640I-0.634J-1.455
G1X52.711Y16.565
G2X53.079Y16.046I-1.084J-1.159
G1X53.162Y15.964
X53.237Y15.888
X53.312Y15.813
X53.387Y15.738
G2X53.873Y14.812I-1.084J-1.159
G2X53.966Y14.278I-1.495J-0.533
G1Y13.902
G2X53.873Y13.369I-1.587J0.000
G0Z5.080
G0X52.120Y78.276
G1Z-4.000F300.0
G2X51.594Y78.648I0.634J1.455F1000.0
G2X51.223Y79.173I1.084J1.159
G2X51.016Y79.957I1.380J0.784
G1Y80.934
G2X51.096Y81.431I1.588J0.000
G2X51.214Y81.923I1.583J-0.121
G2X51.670Y82.695I1.539J-0.388
G1X51.745Y82.770
X51.820Y82.845
X51.895Y82.920
G2X53.054Y83.424I1.159J-1.084
G1X53.505
G2X54.665Y82.920I0.000J-1.587
G1X54.740Y82.845
X54.815Y82.770
X54.890Y82.695
G2X55.393Y81.535I-1.084J-1.159
G1Y80.483
G2X55.270Y79.870I-1.588J0.000
G1X55.226Y79.725
G2X55.036Y79.173I-1.570J0.233
G2X54.665Y78.648I-1.455J0.634
G2X54.139Y78.276I-1.159J1.084
G2X53.355Y78.069I-0.784J1.380
G1X52.904
G2X52.120Y78.276I0.000J1.588
G0Z5.080
G0X11.489Y1.128
G1Z-5.000F300.0
G1X1.393F1000.0
X1.357Y1.131
X1.353Y1.185
Y3.351
X10.136
Y3.532
X10.149Y3.741
X10.191Y3.947
X10.259Y4.145
X10.329Y4.360
X10.431Y4.564
X10.560Y4.751
X10.714Y4.917
X10.789Y4.992
X10.864Y5.067
X10.939Y5.142
X11.014Y5.217
X11.112Y5.314
Y5.336
X11.137Y5.573
X1.353
Y7.796
X9.994
X9.998Y7.869
X10.038Y8.071
X10.103Y8.266
X10.192Y8.449
X10.302Y8.657
X10.444Y8.850
X10.614Y9.020
X10.806Y9.161
X11.014Y9.271
X11.198Y9.360
X11.393Y9.425
X11.595Y9.465
X11.798Y9.478
X12.024
X12.227Y9.465
X12.429Y9.425
X12.624Y9.360
X12.808Y9.271
X12.999Y9.172
X13.176Y9.047
X13.333Y8.900
X13.409Y8.825
X13.554Y8.669
X13.680Y8.492
X13.781Y8.297
X13.854Y8.090
X13.897Y7.878
X13.903Y7.796
X13.967
G0Z5.080
G0X13.953Y10.018
G1Z-5.000F300.0
G1X1.353F1000.0
G0Z5.080
G0Y12.241
G1Z-5.000F300.0
G1X6.386F1000.0
X6.360Y12.292
X6.285Y12.442
X6.196Y12.625
X6.130Y12.821
X6.091Y13.022
X6.078Y13.226
Y13.602
X6.092Y13.814
X6.136Y14.027
X6.209Y14.234
X6.310Y14.428
X6.335Y14.463
X1.353
G0Z5.080
G0X13.953Y10.018
G1Z-5.000F300.0
G1X13.941Y10.058F1000.0
X13.873Y10.256
X13.832Y10.462
X13.818Y10.671
Y11.047
X13.832Y11.256
X13.873Y11.462
X13.941Y11.660
X14.007Y11.864
X14.100Y12.056
X14.175Y12.207
X14.193Y12.241
X10.707
G0Z5.080
G0X46.733Y1.128
G1Z-5.000F300.0
G1X18.225F1000.0
X18.259Y1.314
X18.270Y1.503
Y2.104
X18.257Y2.308
X18.218Y2.510
X18.152Y2.705
X18.063Y2.888
X17.964Y3.080
X17.839Y3.256
X17.751Y3.351
X44.757
X44.755Y3.358
X44.716Y3.557
X44.704Y3.757
Y4.283
X44.717Y4.487
X44.756Y4.689
X44.822Y4.884
X44.911Y5.068
X44.986Y5.218
X45.073Y5.388
X45.180Y5.548
X45.202Y5.573
X18.179
X18.293Y5.679
X18.368Y5.754
X18.444Y5.829
X18.519Y5.904
X18.624Y6.012
X18.895Y6.134
X19.086Y6.234
X19.263Y6.359
X19.420Y6.506
X19.496Y6.581
X19.571Y6.656
X19.718Y6.813
X19.843Y6.990
X19.942Y7.182
X20.031Y7.365
X20.096Y7.560
X20.136Y7.762
X20.138Y7.796
X45.985
X46.033Y7.848
X46.109Y7.923
X46.266Y8.070
X46.443Y8.195
X46.634Y8.294
X46.785Y8.369
X46.968Y8.458
X47.163Y8.524
X47.365Y8.563
X47.569Y8.576
X48.020
X48.223Y8.563
X48.425Y8.524
X48.620Y8.458
X48.804Y8.369
X48.995Y8.270
X49.172Y8.145
X49.329Y7.998
X49.404Y7.923
X49.480Y7.848
X49.528Y7.796
X50.952
G0Z5.080
G0X63.460Y1.128
G1Z-5.000F300.0
G1X59.526F1000.0
X59.545Y1.170
X59.634Y1.353
X59.699Y1.548
X59.739Y1.750
X59.752Y1.954
Y2.138
X59.925Y2.297
X60.072Y2.455
X60.197Y2.632
X60.296Y2.823
X60.371Y2.973
X60.461Y3.157
X60.526Y3.351
X63.500
Y5.573
X60.229
X60.197Y5.635
X60.072Y5.811
X59.925Y5.969
X59.850Y6.044
X59.775Y6.119
X59.617Y6.266
X59.440Y6.391
X59.249Y6.490
X59.066Y6.580
X58.871Y6.645
X58.669Y6.684
X58.465Y6.698
X58.099
Y7.064
X58.086Y7.268
X58.046Y7.469
X57.981Y7.665
X57.917Y7.796
X63.500
Y10.018
X56.220
Y10.220
X56.206Y10.429
X56.165Y10.635
X56.097Y10.833
X56.031Y11.037
X55.938Y11.230
X55.842Y11.415
X55.723Y11.586
X55.635Y11.728
X55.532Y11.860
X55.416Y11.981
X55.341Y12.056
X55.266Y12.131
X55.191Y12.206
X55.156Y12.241
X63.500
Y14.463
X54.191
Y14.579
X54.181Y14.759
X54.150Y14.938
X54.099Y15.112
X54.054Y15.319
X53.981Y15.520
X53.881Y15.710
X53.757Y15.885
X53.613Y16.039
X53.538Y16.114
X53.462Y16.189
X53.387Y16.264
X53.376Y16.276
X53.243Y16.471
X53.155Y16.613
X53.098Y16.686
X63.500
Y18.908
X52.237
X52.110Y19.045
X52.035Y19.120
X51.914Y19.236
X51.782Y19.339
X51.640Y19.427
X51.469Y19.546
X51.284Y19.641
X51.100Y19.730
X50.905Y19.796
X50.703Y19.835
X50.499Y19.848
X49.973
X49.764Y19.835
X49.558Y19.793
X49.360Y19.725
X49.146Y19.655
X48.941Y19.553
X48.754Y19.424
X48.588Y19.270
X48.513Y19.195
X48.438Y19.120
X48.363Y19.045
X48.288Y18.970
X48.231Y18.908
G0Z5.080
G0X48.789Y10.018
G1Z-5.000F300.0
G1X26.422F1000.0
X26.422Y10.020
X26.457Y10.249
X26.501Y10.412
X26.528Y10.578
X26.537Y10.746
Y10.972
X26.523Y11.181
X26.481Y11.387
X26.413Y11.585
X26.347Y11.788
X26.254Y11.981
X26.179Y12.131
X26.124Y12.241
X47.269
G0Z5.080
G0X10.707
G1Z-5.000F300.0
G1X10.742Y12.421F1000.0
X10.756Y12.625
Y12.850
X10.742Y13.059
X10.700Y13.266
X10.632Y13.464
X10.562Y13.678
X10.460Y13.882
X10.331Y14.070
X10.177Y14.235
X10.102Y14.310
X10.027Y14.386
X9.943Y14.463
X47.815
X47.759Y14.635
X47.722Y14.831
X47.710Y15.030
Y15.405
X47.725Y15.628
X47.675Y15.800
X47.645Y15.978
X47.634Y16.157
Y16.457
X47.656Y16.686
X1.353
Y18.908
X48.231
G0Z5.080
G0X1.353Y21.131
G1Z-5.000F300.0
G1X63.500F1000.0
Y23.353
X1.353
Y25.576
X63.500
Y27.798
X1.353
Y30.021
X63.500
Y32.243
X1.353
Y34.466
X63.500
Y36.688
X1.353
Y38.911
X63.500
Y41.133
X1.353
Y43.356
X63.500
Y45.578
X1.353
Y47.801
X63.500
Y50.023
X1.353
Y52.246
X63.500
Y54.468
X1.353
Y56.691
X63.500
Y58.913
X1.353
Y61.136
X63.500
Y63.358
X1.353
Y65.581
X63.500
Y67.803
X1.353
Y70.026
X63.500
Y72.248
X1.353
Y74.471
X36.992
X36.865Y74.590
X36.790Y74.665
X36.715Y74.740
X36.640Y74.815
X36.486Y74.981
X36.357Y75.168
X36.255Y75.372
X36.185Y75.587
X36.117Y75.785
X36.075Y75.991
X36.062Y76.200
Y76.693
X1.353
Y78.916
X36.844
X36.865Y78.938
X37.023Y79.085
X37.200Y79.209
X37.391Y79.309
X37.575Y79.398
X37.770Y79.463
X37.972Y79.503
X38.175Y79.516
X38.626
X38.870Y79.497
X39.045Y79.689
X39.120Y79.764
X39.277Y79.911
X39.454Y80.036
X39.645Y80.135
X39.848Y80.232
X40.064Y80.300
X40.286Y80.336
X40.144Y80.498
X40.116Y80.520
X39.890Y80.670
X39.748Y80.758
X39.616Y80.861
X39.496Y80.977
X39.349Y81.135
X39.346Y81.138
X1.353
Y83.361
X38.917
X38.960Y83.489
X39.049Y83.672
X39.148Y83.864
X39.273Y84.040
X39.420Y84.198
X39.496Y84.273
X39.616Y84.389
X39.748Y84.492
X39.890Y84.580
X40.037Y84.684
X40.195Y84.771
X40.361Y84.839
X40.397Y84.874
X40.472Y84.949
X40.630Y85.096
X40.807Y85.221
X40.998Y85.321
X41.149Y85.396
X41.308Y85.455
X41.472Y85.497
Y85.583
X1.353
Y87.787
X42.294
X42.354Y87.873
X42.501Y88.030
X42.577Y88.106
X42.734Y88.253
X42.911Y88.378
X43.102Y88.477
X43.253Y88.552
X43.451Y88.647
X43.660Y88.714
X43.820Y88.899
X1.393
G0Z5.080
G0X40.287Y74.471
G1Z-5.000F300.0
G1X63.500F1000.0
Y76.693
X47.646
X47.728Y76.812
X47.826Y77.003
X47.897Y77.206
X47.940Y77.417
X47.954Y77.628
Y78.229
X47.927Y78.520
X48.395
X48.640Y78.539
X48.879Y78.596
X49.077Y78.612
X49.272Y78.653
X49.459Y78.719
X49.663Y78.785
X49.856Y78.878
X49.930Y78.916
X50.745
G0Z5.080
G0X55.514
G1Z-5.000F300.0
G1X63.500F1000.0
Y81.138
X56.192
X56.167Y81.265
X56.102Y81.460
X56.013Y81.643
X55.938Y81.794
X55.771Y82.086
X55.752Y82.144
X55.711Y82.338
X55.646Y82.525
X55.580Y82.728
X55.487Y82.921
X55.388Y83.112
X55.263Y83.289
X55.195Y83.361
X63.500
Y85.583
X53.139
Y86.195
X53.125Y86.404
X53.084Y86.610
X53.087Y86.613
X53.234Y86.771
X53.359Y86.948
X53.458Y87.139
X53.547Y87.322
X53.612Y87.518
X53.652Y87.719
X53.656Y87.787
X63.500
Y88.842
X63.496Y88.896
X63.460Y88.899
X53.576
G0Z5.080
G0X50.948Y83.361
G1Z-5.000F300.0
G1X51.437F1000.0
G0Z5.080
G0X11.489Y1.127
G1Z-5.000F300.0
G1X11.450Y1.217F1000.0
G2X11.014Y1.546I0.724J1.413
G1X10.939Y1.621
X10.864Y1.696
X10.789Y1.771
G2X10.418Y2.297I1.084J1.159
G1X10.259Y2.693
G2X10.136Y3.307I1.464J0.613
G1Y3.532
G2X10.259Y4.145I1.588J0.000
G2X10.714Y4.917I1.539J-0.388
G1X10.789Y4.992
X10.864Y5.067
X10.939Y5.142
X11.014Y5.217
X11.112Y5.314
Y5.336
X11.146Y5.660
G2X10.564Y6.055I0.577J1.479
G1X10.488Y6.130
G2X9.985Y7.289I1.084J1.159
G1Y7.665
G2X10.192Y8.449I1.588J0.000
G2X11.014Y9.271I1.455J-0.634
G2X11.798Y9.478I0.784J-1.380
G1X12.024
G2X12.808Y9.271I0.000J-1.588
G2X13.333Y8.900I-0.634J-1.455
G1X13.409Y8.825
G2X13.912Y7.665I-1.084J-1.159
G1Y7.289
X13.906Y7.157
G2X14.320Y6.965I-0.455J-1.521
G1X14.308Y7.012
X14.175Y7.257
X14.016Y7.653
G2X13.893Y8.266I1.464J0.613
G1Y8.642
G2X14.016Y9.255I1.588J0.000
G1X14.143Y9.591
G2X13.941Y10.058I1.338J0.855
G2X13.818Y10.671I1.464J0.613
G1Y11.047
G2X13.941Y11.660I1.588J0.000
G1X14.100Y12.056
X14.175Y12.207
G2X14.546Y12.732I1.455J-0.634
G1X14.622Y12.807
X14.697Y12.883
G2X15.222Y13.254I1.159J-1.084
G1X15.619Y13.413
G2X16.232Y13.536I0.613J-1.464
G1X16.307
G2X16.920Y13.413I0.000J-1.588
G1X17.317Y13.254
X17.654Y13.054
X17.778Y13.183
X17.853Y13.258
G2X18.379Y13.629I1.159J-1.084
G1X18.529Y13.705
G2X19.313Y13.912I0.784J-1.380
G1X19.538
G2X20.152Y13.788I0.000J-1.588
G2X20.923Y13.333I-0.388J-1.539
G1X20.999Y13.258
X21.074Y13.183
X21.290Y12.934
X21.342Y12.935
X21.718
X21.950Y12.918
X22.061Y13.033
G2X22.587Y13.404I1.159J-1.084
G1X22.983Y13.563
G2X23.596Y13.686I0.613J-1.464
G1X23.822
G2X24.435Y13.563I0.000J-1.588
G1X24.661Y13.488
X25.057Y13.329
G2X25.583Y12.958I-0.634J-1.455
G1X25.658Y12.883
X25.733Y12.807
G2X26.104Y12.282I-1.084J-1.159
G1X26.179Y12.131
X26.254Y11.981
X26.413Y11.585
G2X26.537Y10.972I-1.464J-0.613
G1Y10.746
G2X26.457Y10.249I-1.588J0.000
G2X26.254Y9.586I-1.583J0.121
G2X25.883Y9.061I-1.455J0.634
G1X25.808Y8.985
X25.733Y8.910
X25.658Y8.835
G2X24.731Y8.349I-1.159J1.084
G2X24.198Y8.257I-0.533J1.495
G1X24.122
G2X23.626Y8.337I0.000J1.588
G2X22.963Y8.539I0.121J1.583
G1X22.812Y8.614
G2X22.350Y8.921I0.634J1.455
G1X22.311Y8.945
X22.181Y8.906
X21.880Y8.814
G2X21.375Y8.464I-1.139J1.106
G2X20.591Y8.257I-0.784J1.380
G1X20.149
Y7.966
G2X19.942Y7.182I-1.588J0.000
G2X19.571Y6.656I-1.455J0.634
G1X19.496Y6.581
X19.420Y6.506
G2X18.895Y6.134I-1.159J1.084
G1X18.624Y6.012
X18.519Y5.904
X18.444Y5.829
X18.368Y5.754
X18.293Y5.679
G2X17.522Y5.224I-1.159J1.084
G2X16.908Y5.101I-0.613J1.464
G1X16.457
X16.112Y5.139
X16.184Y4.992
X16.340Y4.612
X16.490Y4.537
G2X17.016Y4.165I-0.634J-1.455
G1X17.091Y4.090
X17.166Y4.015
X17.241Y3.940
G2X17.543Y3.554I-1.084J-1.159
G1X17.692Y3.414
G2X18.063Y2.888I-1.084J-1.159
G2X18.270Y2.104I-1.380J-0.784
G1Y1.503
X18.225Y1.127
X46.733
Y1.210
G2X45.977Y1.540I0.235J1.570
G2X45.583Y1.846I0.765J1.391
G2X45.276Y2.241I1.084J1.159
G1X45.061Y2.598
X44.904Y2.985
G2X44.704Y3.757I1.387J0.773
G1Y4.283
G2X44.911Y5.068I1.588J0.000
G1X44.986Y5.218
G2X45.305Y5.692I1.455J-0.634
G1Y5.711
G2X45.380Y6.194I1.588J0.000
G1Y6.388
G2X45.587Y7.172I1.587J0.000
G1X45.662Y7.322
G2X46.033Y7.848I1.455J-0.634
G1X46.109Y7.923
G2X46.634Y8.294I1.159J-1.084
G1X46.785Y8.369
G2X47.569Y8.576I0.784J-1.380
G1X48.020
G2X48.804Y8.369I0.000J-1.588
G2X49.329Y7.998I-0.634J-1.455
G1X49.404Y7.923
X49.480Y7.848
G2X49.851Y7.322I-1.084J-1.159
G1X50.010Y6.926
X50.030Y6.874
X50.166Y6.941
G2X50.604Y7.110I0.784J-1.380
G2X51.068Y7.923I1.549J-0.347
G1X51.075Y7.930
X50.914Y8.329
G2X50.791Y8.943I1.464J0.613
G1Y9.168
G2X50.905Y9.759I1.588J0.000
G2X50.424Y9.685I-0.480J1.513
G1X49.898
G2X49.285Y9.808I0.000J1.588
G1X48.889Y9.967
X48.532Y10.182
G2X48.138Y10.488I0.765J1.391
G1X48.062Y10.564
G2X47.756Y10.958I1.084J1.159
G2X47.457Y11.561I1.241J0.990
G1X47.382Y11.786
G2X47.259Y12.399I1.464J0.613
G1Y13.151
G2X47.466Y13.935I1.588J0.000
G2X47.821Y14.445I1.455J-0.634
G2X47.710Y15.030I1.476J0.584
G1Y15.405
X47.725Y15.628
G2X47.634Y16.157I1.497J0.529
G1Y16.457
X47.663Y16.758
X47.634Y17.059
Y17.434
G2X47.758Y18.048I1.588J0.000
G1X47.917Y18.444
G2X48.288Y18.970I1.455J-0.634
G1X48.363Y19.045
X48.438Y19.120
X48.513Y19.195
X48.588Y19.270
G2X49.360Y19.725I1.159J-1.084
G2X49.973Y19.848I0.613J-1.464
G1X50.499
G2X51.284Y19.641I0.000J-1.588
G1X51.640Y19.427
G2X52.035Y19.120I-0.765J-1.391
G1X52.110Y19.045
G2X52.481Y18.519I-1.084J-1.159
G2X52.688Y17.735I-1.380J-0.784
G1Y17.284
X52.687Y17.238
X52.853Y16.949
X52.861Y16.941
X52.936Y16.865
G2X53.243Y16.471I-1.084J-1.159
G1X53.376Y16.276
X53.387Y16.264
X53.462Y16.189
X53.538Y16.114
X53.613Y16.039
G2X54.099Y15.112I-1.084J-1.159
G2X54.191Y14.579I-1.495J-0.533
G1Y14.203
G2X54.116Y13.720I-1.587J0.000
G1Y13.677
G2X54.024Y13.143I-1.588J0.000
G1X53.954Y12.858
G2X55.041Y12.357I-0.073J-1.586
G1X55.116Y12.281
X55.191Y12.206
X55.266Y12.131
X55.341Y12.056
X55.416Y11.981
G2X55.723Y11.586I-1.084J-1.159
G1X55.938Y11.230
X56.097Y10.833
G2X56.220Y10.220I-1.464J-0.613
G1Y9.836
X56.469Y9.722
G2X56.994Y9.351I-0.634J-1.455
G1X57.070Y9.275
G2X57.441Y8.750I-1.084J-1.159
G1X57.516Y8.599
X57.674Y8.209
X57.892Y7.848
G2X58.099Y7.064I-1.380J-0.784
G1Y6.698
X58.465
G2X59.249Y6.490I0.000J-1.588
G2X59.775Y6.119I-0.634J-1.455
G1X59.850Y6.044
X59.925Y5.969
G2X60.296Y5.443I-1.084J-1.159
G2X60.503Y4.659I-1.380J-0.784
G1Y4.616
G2X60.579Y4.133I-1.512J-0.483
G1Y3.757
G2X60.371Y2.973I-1.588J0.000
G1X60.296Y2.823
G2X59.925Y2.297I-1.455J0.634
G1X59.752Y2.138
Y1.954
G2X59.545Y1.170I-1.588J0.000
G1X59.526Y1.127
X63.442
X63.496Y1.131
X63.500Y1.185
Y88.842
X63.496Y88.896
X63.442Y88.900
X53.575
G2X53.665Y88.374I-1.498J-0.526
G1Y87.923
G2X53.458Y87.139I-1.588J0.000
G2X53.087Y86.613I-1.455J0.634
G1X53.084Y86.610
X53.139Y86.195
Y85.518
G2X52.932Y84.734I-1.587J0.000
G2X52.561Y84.209I-1.455J0.634
G1X52.486Y84.133
X52.430Y84.077
X52.591Y84.127
G2X53.205Y84.250I0.613J-1.464
G1X53.505
G2X54.289Y84.043I0.000J-1.587
G1X54.440Y83.968
G2X54.965Y83.597I-0.634J-1.455
G1X55.041Y83.522
X55.116Y83.446
G2X55.487Y82.921I-1.084J-1.159
G1X55.646Y82.525
X55.752Y82.144
X55.771Y82.086
X55.938Y81.794
X56.013Y81.643
G2X56.220Y80.859I-1.380J-0.784
G1Y80.483
G2X56.013Y79.699I-1.588J0.000
G1X55.938Y79.549
G2X55.631Y79.087I-1.455J0.634
G2X55.341Y78.723I-1.374J0.796
G1X55.266Y78.648
G2X54.902Y78.358I-1.159J1.084
G1X54.890Y78.347
G2X54.365Y77.976I-1.159J1.084
G1X54.214Y77.901
G2X53.430Y77.694I-0.784J1.380
G1X52.904
G2X52.371Y77.786I0.000J1.588
G2X51.819Y77.976I0.233J1.570
G1X51.669Y78.051
G2X51.143Y78.422I0.634J1.455
G2X50.854Y78.786I1.084J1.159
G2X50.527Y79.296I1.148J1.096
G1X50.437Y79.243
X50.212Y79.092
X49.856Y78.878
X49.459Y78.719
G2X48.879Y78.596I-0.613J1.464
G2X48.395Y78.520I-0.484J1.512
G1X47.927
X47.954Y78.229
Y77.628
G2X47.607Y76.638I-1.587J0.000
G2X47.300Y76.243I-1.391J0.765
G1X47.225Y76.168
X47.150Y76.093
G2X46.755Y75.786I-1.159J1.084
G1X46.399Y75.571
G2X45.615Y75.364I-0.784J1.380
G1X45.164
G2X44.563Y75.482I0.000J1.587
G1X44.358Y75.414
X44.220Y75.346
X43.823Y75.187
G2X43.210Y75.063I-0.613J1.464
G1X42.609
G2X41.721Y75.335I0.000J1.587
G1X41.475Y75.226
G2X40.988Y74.895I-1.121J1.124
G1X40.838Y74.820
X40.819Y74.809
X40.593Y74.658
G2X39.991Y74.360I-0.990J1.241
G2X39.378Y74.237I-0.613J1.464
G1X39.225
G2X38.551Y74.086I-0.674J1.437
G1X38.025
G2X36.865Y74.590I0.000J1.588
G1X36.790Y74.665
X36.715Y74.740
X36.640Y74.815
G2X36.185Y75.587I1.084J1.159
G2X36.062Y76.200I1.464J0.613
G1Y77.177
G2X36.154Y77.710I1.588J0.000
G2X36.344Y78.262I1.570J-0.233
G2X36.715Y78.787I1.455J-0.634
G1X36.790Y78.862
X36.865Y78.938
G2X37.391Y79.309I1.159J-1.084
G2X38.175Y79.516I0.784J-1.380
G1X38.626
X38.870Y79.497
X39.045Y79.689
X39.120Y79.764
G2X39.645Y80.135I1.159J-1.084
G2X40.286Y80.336I0.784J-1.380
G1X40.144Y80.498
X40.116Y80.520
X39.890Y80.670
G2X39.496Y80.977I0.765J1.391
G2X39.124Y81.503I1.084J1.159
G1X39.049Y81.653
G2X38.842Y82.437I1.380J0.784
G1Y82.888
G2X39.049Y83.672I1.588J0.000
G2X39.420Y84.198I1.455J-0.634
G1X39.496Y84.273
G2X39.890Y84.580I1.159J-1.084
G2X40.361Y84.839I0.990J-1.241
G1X40.397Y84.874
X40.472Y84.949
G2X40.998Y85.321I1.159J-1.084
G2X41.472Y85.497I0.784J-1.380
G1Y85.669
G2X41.596Y86.282I1.587J0.000
G2X41.846Y86.820I1.539J-0.388
G1X41.896Y86.958
X42.055Y87.355
X42.130Y87.505
G2X42.501Y88.030I1.455J-0.634
G1X42.577Y88.106
G2X43.102Y88.477I1.159J-1.084
G1X43.253Y88.552
X43.660Y88.714
X43.821Y88.900
X1.410
X1.357Y88.896
X1.353Y88.842
Y1.185
X1.357Y1.131
X1.410Y1.127
X11.489
G0Z5.080
G0X9.359Y14.828
G1Z-5.000F300.0
G1X9.501Y14.757F1000.0
G2X10.027Y14.386I-0.634J-1.455
G1X10.102Y14.310
X10.177Y14.235
G2X10.632Y13.464I-1.084J-1.159
G2X10.756Y12.850I-1.464J-0.613
G1Y12.625
G2X10.548Y11.841I-1.588J0.000
G2X10.177Y11.315I-1.455J0.634
G2X9.652Y10.944I-1.159J1.084
G2X8.867Y10.737I-0.784J1.380
G1X8.642
G2X7.858Y10.944I0.000J1.588
G2X7.332Y11.315I0.634J1.455
G1X7.320Y11.326
X7.126Y11.459
G2X6.731Y11.766I0.765J1.391
G2X6.360Y12.292I1.084J1.159
G1X6.285Y12.442
G2X6.078Y13.226I1.380J0.784
G1Y13.602
G2X6.581Y14.761I1.588J0.000
G1X6.656Y14.836
G2X7.815Y15.340I1.159J-1.084
G1X8.041
G2X8.654Y15.216I0.000J-1.588
G2X9.359Y14.828I-0.388J-1.539
G0Z5.080
G0X51.079Y82.857
G1Z-5.000F300.0
G1X51.212Y83.052F1000.0
G2X51.519Y83.446I1.391J-0.765
G1X51.594Y83.522
X51.650Y83.578
X51.488Y83.528
X51.263Y83.453
X50.874Y83.346
G2X51.062Y82.900I-1.351J-0.833
G1X51.079Y82.857
G0Z5.080
G0X9.890Y1.128
G1Z-6.000F300.0
G1X1.393F1000.0
X1.357Y1.131
X1.353Y1.185
Y3.351
X9.396
X9.384Y3.532
Y3.908
X9.397Y4.111
X9.437Y4.313
X9.502Y4.508
X9.591Y4.692
X9.666Y4.842
X9.766Y5.033
X9.891Y5.210
X10.038Y5.368
X10.113Y5.443
X10.263Y5.573
X1.353
Y7.796
X9.119
X9.097Y7.912
X9.084Y8.116
Y8.492
X9.091Y8.649
X8.898Y8.689
X8.711Y8.753
X8.534Y8.840
X8.343Y8.939
X8.166Y9.064
X8.009Y9.211
X7.850Y9.382
X7.719Y9.575
X7.708Y9.587
X7.633Y9.662
X7.558Y9.737
X7.483Y9.812
X7.335Y9.970
X7.301Y10.018
X1.353
Y12.241
X5.824
X5.759Y12.367
X5.639Y12.631
X5.509Y12.779
X5.398Y12.943
X5.308Y13.118
X5.215Y13.311
X5.149Y13.514
X5.081Y13.713
X5.039Y13.919
X5.026Y14.128
Y14.463
X1.353
Y16.686
X2.856
X2.847Y16.784
X2.710Y16.971
X2.602Y17.176
X2.513Y17.360
X2.448Y17.555
X2.408Y17.757
X2.395Y17.960
Y18.411
X2.408Y18.615
X2.448Y18.817
X2.479Y18.908
X1.353
Y21.131
G0Z5.080
G0X13.694Y10.018
G1Z-6.000F300.0
G1X12.731F1000.0
X12.725Y10.024
X12.548Y10.149
X12.357Y10.248
X12.080Y10.372
X12.104Y10.550
X12.161Y10.779
X12.183Y11.014
X12.240Y11.253
X12.259Y11.498
Y11.723
X12.245Y11.932
X12.203Y12.138
X12.168Y12.241
X13.162
X13.125Y12.349
X13.084Y12.542
X13.031Y12.723
X13.000Y12.909
X12.889Y13.214
X12.821Y13.412
X12.780Y13.618
X12.766Y13.827
Y14.203
X12.779Y14.407
X12.790Y14.463
X10.547
X10.478Y14.536
X10.403Y14.611
X10.328Y14.686
X10.172Y14.831
X9.998Y14.955
X9.810Y15.054
X9.801Y15.062
X9.654Y15.200
X9.491Y15.319
X9.419Y15.519
X9.319Y15.709
X9.195Y15.884
X9.050Y16.039
X8.975Y16.114
X8.900Y16.189
X8.825Y16.264
X8.669Y16.410
X8.492Y16.535
X8.297Y16.636
X8.156Y16.686
G0Z5.080
G0X46.303Y1.128
G1Z-6.000F300.0
G1X18.581F1000.0
X18.630Y1.350
X18.646Y1.578
Y2.104
X18.632Y2.317
X18.588Y2.529
X18.515Y2.736
X18.414Y2.931
X18.288Y3.108
X18.143Y3.264
X18.068Y3.339
X18.056Y3.351
X43.972
X43.934Y3.424
X43.841Y3.617
X43.775Y3.820
X43.707Y4.019
X43.665Y4.225
X43.652Y4.434
Y4.885
X43.665Y5.088
X43.704Y5.290
X43.770Y5.485
X43.812Y5.573
X18.707
X18.897Y5.795
X18.970Y5.834
X19.120Y5.909
X19.311Y6.008
X19.488Y6.133
X19.646Y6.280
X19.721Y6.355
X19.868Y6.513
X19.993Y6.690
X20.092Y6.881
X20.167Y7.031
X20.256Y7.213
X20.321Y7.405
X20.360Y7.605
X20.374Y7.796
X23.021
G0Z5.080
G0X59.860Y1.128
G1Z-6.000F300.0
G1X63.460F1000.0
X63.496Y1.131
X63.500Y1.185
Y3.351
X61.006
X61.016Y3.403
X61.030Y3.607
Y3.983
X61.016Y4.192
X60.974Y4.398
X60.906Y4.596
X60.835Y4.812
X60.733Y5.016
X60.604Y5.203
X60.538Y5.403
X60.456Y5.573
X63.500
Y7.796
X58.213
X58.138Y7.960
X58.037Y8.125
X57.918Y8.275
X57.825Y8.579
X57.759Y8.782
X57.666Y8.975
X57.567Y9.167
X57.442Y9.343
X57.295Y9.501
X57.220Y9.576
X57.145Y9.651
X56.994Y9.793
X56.824Y9.915
X56.639Y10.013
X56.626Y10.018
X63.500
Y12.241
X55.493
X55.485Y12.254
X55.382Y12.386
X55.266Y12.507
X55.111Y12.652
X54.965Y12.807
X54.808Y12.954
X54.631Y13.079
X54.440Y13.179
X54.289Y13.254
X54.285Y13.256
X54.327Y13.465
X54.341Y13.677
Y13.946
X54.398Y14.184
X54.416Y14.428
Y14.463
X63.500
Y16.686
X53.567
X53.538Y16.715
X53.484Y16.770
X53.444Y16.927
X53.539Y17.115
X53.609Y17.316
X53.651Y17.524
X53.665Y17.735
Y18.111
X53.651Y18.323
X53.607Y18.536
X53.534Y18.743
X53.448Y18.908
X63.500
G0Z5.080
G0X25.782Y7.796
G1Z-6.000F300.0
G1X45.307F1000.0
X45.439Y7.920
X45.616Y8.044
X45.808Y8.144
X46.116Y8.278
X46.409Y8.444
X46.559Y8.519
X46.752Y8.612
X46.955Y8.678
X47.153Y8.746
X47.360Y8.788
X47.569Y8.802
X48.170
X48.373Y8.789
X48.575Y8.749
X48.770Y8.684
X48.954Y8.595
X49.104Y8.519
X49.296Y8.420
X49.472Y8.295
X49.630Y8.148
X49.777Y7.991
X49.902Y7.814
X49.911Y7.796
X50.261
G0Z5.080
G0X48.327Y10.018
G1Z-6.000F300.0
G1X26.735F1000.0
X26.743Y10.051
X26.762Y10.295
Y10.821
X26.748Y11.030
X26.707Y11.237
X26.639Y11.435
X26.564Y11.660
X26.500Y11.857
X26.411Y12.045
X26.346Y12.241
X46.330
X46.323Y12.265
X46.292Y12.444
X46.282Y12.625
Y12.700
X46.292Y12.881
X46.323Y13.060
X46.374Y13.233
X46.415Y13.427
X46.480Y13.614
X46.551Y13.828
X46.651Y14.031
X46.779Y14.216
X46.888Y14.389
X46.951Y14.463
X25.054
X24.981Y14.536
X24.906Y14.611
X24.751Y14.756
X24.573Y14.882
X24.379Y14.983
X24.172Y15.056
X23.959Y15.100
X23.747Y15.114
X23.371
X23.167Y15.101
X22.965Y15.061
X22.770Y14.996
X22.587Y14.907
X22.396Y14.808
X22.219Y14.683
X22.061Y14.536
X21.989Y14.463
X20.741
G0Z5.080
G0X8.156Y16.686
G1Z-6.000F300.0
G1X46.357F1000.0
Y16.983
X46.370Y17.187
X46.410Y17.389
X46.475Y17.584
X46.564Y17.768
X46.639Y17.918
X46.738Y18.109
X46.863Y18.286
X47.010Y18.444
X47.085Y18.519
X47.161Y18.594
X47.324Y18.746
X47.509Y18.874
X47.577Y18.908
X22.199
G0Z5.080
G0X63.500
G1Z-6.000F300.0
G1Y21.131F1000.0
X23.714
X23.715Y21.133
X23.746Y21.312
X23.756Y21.492
Y21.567
X23.746Y21.748
X23.715Y21.927
X23.664Y22.101
X23.619Y22.307
X23.546Y22.509
X23.446Y22.699
X23.322Y22.873
X23.178Y23.028
X23.103Y23.103
X23.028Y23.178
X22.952Y23.253
X22.917Y23.289
X22.888Y23.353
X63.500
Y25.576
X21.862
G0Z5.080
G0X14.818Y18.908
G1Z-6.000F300.0
G1X6.680F1000.0
G0Z5.080
G0X1.353Y21.131
G1Z-6.000F300.0
G1X15.054F1000.0
X14.984Y21.277
X14.918Y21.480
X14.850Y21.678
X14.809Y21.885
X14.795Y22.093
Y22.770
X14.810Y22.991
X14.857Y23.210
X14.910Y23.353
X1.353
Y25.576
X17.131
X17.137Y25.679
X17.177Y25.881
X17.242Y26.076
X17.331Y26.259
X17.407Y26.410
X17.516Y26.617
X17.658Y26.810
X17.828Y26.980
X18.020Y27.122
X18.228Y27.231
X18.379Y27.306
X18.562Y27.396
X18.757Y27.461
X18.959Y27.500
X19.163Y27.514
X19.388
X19.592Y27.500
X19.794Y27.461
X19.989Y27.396
X20.172Y27.306
X20.323Y27.231
X20.514Y27.132
X20.691Y27.007
X20.848Y26.860
X20.977Y26.724
X21.090Y26.574
X21.183Y26.412
X21.449Y26.184
X21.596Y26.026
X21.721Y25.849
X21.821Y25.658
X21.862Y25.576
G0Z5.080
G0X63.500Y27.798
G1Z-6.000F300.0
G1X1.353F1000.0
Y30.021
X63.500
Y32.243
X1.353
Y34.466
X51.549
X51.542Y34.568
Y35.094
X51.555Y35.298
X51.595Y35.500
X51.660Y35.695
X51.749Y35.878
X51.848Y36.069
X51.973Y36.246
X52.120Y36.404
X52.278Y36.551
X52.455Y36.676
X52.479Y36.688
X1.353
Y38.911
G0Z5.080
G0X55.822Y34.466
G1Z-6.000F300.0
G1X63.500F1000.0
Y36.688
X54.832
G0Z5.080
G0X1.353Y38.911
G1Z-6.000F300.0
G1X63.500F1000.0
Y41.133
X1.353
Y43.356
X63.500
Y45.578
X1.353
Y47.801
X63.500
Y50.023
X1.353
Y52.246
X51.769
X51.745Y52.271
X51.670Y52.346
X51.594Y52.421
X51.447Y52.579
X51.322Y52.755
X51.223Y52.947
X51.137Y53.122
X51.074Y53.307
X51.033Y53.498
X50.982Y53.672
X50.951Y53.851
X50.941Y54.031
Y54.257
X50.957Y54.468
X1.353
Y56.691
X52.124
X52.304Y56.778
X52.499Y56.844
X52.701Y56.883
X52.904Y56.896
X52.979
X53.183Y56.883
X53.385Y56.844
X53.580Y56.778
X53.760Y56.691
G0Z5.080
G0X63.500Y52.246
G1Z-6.000F300.0
G1X56.699F1000.0
X56.740Y52.304
X56.840Y52.496
X56.929Y52.679
X56.994Y52.874
X57.034Y53.076
X57.047Y53.280
Y54.031
X57.032Y54.244
X56.989Y54.457
X56.984Y54.468
X63.500
Y56.691
X53.760
G0Z5.080
G0X63.500Y58.913
G1Z-6.000F300.0
G1X1.353F1000.0
Y61.136
X63.500
Y63.358
X1.353
Y65.581
X63.500
Y67.803
X1.353
Y70.026
X63.500
Y72.248
X1.353
Y74.471
X34.939
X34.902Y74.547
X34.837Y74.742
X34.797Y74.944
X34.784Y75.148
Y75.674
X34.797Y75.878
X34.837Y76.079
X34.902Y76.275
X34.991Y76.458
X35.091Y76.649
X35.122Y76.693
X1.353
Y78.916
X35.209
X35.212Y78.935
X35.278Y79.130
X35.367Y79.314
X35.442Y79.464
X35.541Y79.655
X35.666Y79.832
X35.813Y79.990
X35.888Y80.065
X36.044Y80.210
X36.221Y80.336
X36.416Y80.437
X36.623Y80.510
X36.835Y80.554
X37.048Y80.568
X37.799
X37.998Y80.556
X38.194Y80.518
X38.384Y80.457
X38.443Y80.516
X38.519Y80.591
X38.594Y80.666
X38.669Y80.741
X38.744Y80.816
X38.819Y80.891
X38.981Y81.042
X38.894Y81.128
X38.883Y81.138
X1.353
Y83.361
X37.790
Y83.489
X37.803Y83.693
X37.843Y83.895
X37.908Y84.090
X37.997Y84.273
X38.072Y84.424
X38.172Y84.615
X38.296Y84.792
X38.443Y84.949
X38.564Y85.065
X38.696Y85.168
X38.838Y85.256
X39.012Y85.377
X39.203Y85.475
X39.407Y85.546
X39.591Y85.583
X1.353
Y87.787
X41.883
X41.906Y87.896
X41.969Y88.081
X42.055Y88.256
X42.154Y88.448
X42.279Y88.624
X42.426Y88.782
X42.501Y88.857
X42.542Y88.899
X1.393
G0Z5.080
G0X41.266Y74.471
G1Z-6.000F300.0
G1X50.005F1000.0
X50.021Y74.439
X50.120Y74.248
X50.245Y74.071
X50.392Y73.913
X50.548Y73.768
X50.725Y73.642
X50.920Y73.541
X51.126Y73.468
X51.339Y73.424
X51.551Y73.410
X51.927
X52.140Y73.424
X52.353Y73.468
X52.559Y73.541
X52.754Y73.642
X52.931Y73.768
X53.087Y73.913
X53.162Y73.988
X53.237Y74.064
X53.384Y74.221
X53.509Y74.398
X53.547Y74.471
X63.500
Y76.693
X53.740
Y76.801
X53.721Y77.045
X53.665Y77.284
Y77.410
X53.858Y77.452
X54.044Y77.516
X54.247Y77.582
X54.440Y77.675
X54.631Y77.775
X54.808Y77.899
X54.965Y78.046
X55.041Y78.122
X55.116Y78.197
X55.191Y78.272
X55.302Y78.386
X55.416Y78.497
X55.491Y78.572
X55.567Y78.648
X55.642Y78.723
X55.717Y78.798
X55.792Y78.873
X55.835Y78.916
X63.500
Y81.138
X56.512
X56.507Y81.221
X56.464Y81.431
X56.392Y81.635
X56.295Y81.826
X56.174Y82.000
X55.995Y82.260
Y82.437
X55.981Y82.641
X55.942Y82.843
X55.877Y83.038
X55.787Y83.221
X55.715Y83.361
X63.500
Y85.583
X53.405
X53.421Y85.649
X53.440Y85.894
Y86.522
X53.576Y86.709
X53.683Y86.914
X53.758Y87.064
X53.848Y87.247
X53.913Y87.442
X53.952Y87.644
X53.962Y87.787
X63.500
Y88.842
X63.496Y88.896
X63.460Y88.899
X53.876
G0Z5.080
G0X48.991Y76.693
G1Z-6.000F300.0
G1X47.923F1000.0
G0Z5.080
G0X1.410Y1.127
G1Z-6.000F300.0
G1X9.891F1000.0
G2X9.610Y2.029I1.307J0.902
G1Y2.555
X9.616Y2.694
X9.591Y2.748
G2X9.384Y3.532I1.380J0.784
G1Y3.908
G2X9.591Y4.692I1.588J0.000
G1X9.666Y4.842
G2X10.038Y5.368I1.455J-0.634
G1X10.113Y5.443
X10.359Y5.657
X10.338Y5.679
X10.263Y5.754
X10.188Y5.829
X10.113Y5.904
G2X9.742Y6.430I1.084J1.159
G2X9.565Y6.905I1.380J0.784
G2X9.291Y7.332I1.181J1.060
G2X9.084Y8.116I1.380J0.784
G1Y8.492
X9.091Y8.649
G2X8.534Y8.840I0.227J1.571
G2X8.009Y9.211I0.634J1.455
G2X7.719Y9.575I1.084J1.159
G1X7.708Y9.587
X7.633Y9.662
X7.558Y9.737
X7.483Y9.812
G2X7.111Y10.338I1.084J1.159
G2X6.927Y10.851I1.380J0.784
G1X6.806Y11.169
G2X6.430Y11.465I0.784J1.380
G1X6.355Y11.541
X6.280Y11.616
G2X5.973Y12.010I1.084J1.159
G1X5.759Y12.367
X5.639Y12.631
G2X5.308Y13.118I1.124J1.121
G1X5.149Y13.514
G2X5.026Y14.128I1.464J0.613
G1Y14.579
X5.068Y14.945
X4.734
G2X3.950Y15.152I0.000J1.588
G2X3.425Y15.523I0.634J1.455
G2X3.053Y16.049I1.084J1.159
G2X2.847Y16.784I1.380J0.784
G2X2.602Y17.176I1.211J1.026
G2X2.395Y17.960I1.380J0.784
G1Y18.411
G2X2.602Y19.195I1.588J0.000
G2X2.974Y19.721I1.455J-0.634
G2X3.499Y20.092I1.159J-1.084
G2X4.283Y20.299I0.784J-1.380
G1X4.509
G2X5.293Y20.092I0.000J-1.588
G2X5.819Y19.721I-0.634J-1.455
G1X5.894Y19.646
X5.906Y19.635
G2X6.270Y19.345I-0.796J-1.374
G1X6.345Y19.270
X6.420Y19.195
X6.495Y19.120
G2X6.998Y17.960I-1.084J-1.159
G1Y17.509
X6.996Y17.434
X6.998Y17.359
Y16.766
X7.064Y16.767
X7.665
G2X8.825Y16.264I0.000J-1.588
G1X8.900Y16.189
X8.975Y16.114
X9.050Y16.039
G2X9.491Y15.319I-1.084J-1.159
G1X9.801Y15.062
X9.810Y15.054
G2X10.328Y14.686I-0.642J-1.452
G1X10.403Y14.611
X10.478Y14.536
G2X10.785Y14.141I-1.084J-1.159
G2X11.066Y13.601I-1.241J-0.990
G2X11.530Y13.258I-0.696J-1.427
G1X11.605Y13.183
X11.680Y13.108
G2X12.135Y12.336I-1.084J-1.159
G2X12.259Y11.723I-1.464J-0.613
G1Y11.498
G2X12.183Y11.014I-1.588J0.000
G2X12.104Y10.550I-1.587J0.033
G1X12.080Y10.372
X12.357Y10.248
G2X12.883Y9.877I-0.634J-1.455
G1X12.958Y9.801
X13.033Y9.726
X13.042Y9.718
G2X13.559Y9.351I-0.642J-1.452
G1X13.634Y9.275
X13.682Y9.229
X13.802Y9.657
X13.685Y10.062
G2X13.592Y10.596I1.495J0.533
G1Y11.047
X13.599Y11.197
X13.499Y11.390
X13.424Y11.540
X13.265Y11.936
X13.190Y12.162
X13.084Y12.542
X13.000Y12.909
X12.889Y13.214
G2X12.766Y13.827I1.464J0.613
G1Y14.203
G2X12.973Y14.987I1.588J0.000
G2X13.344Y15.513I1.455J-0.634
G1X13.419Y15.588
X13.494Y15.663
X13.570Y15.738
G2X14.729Y16.241I1.159J-1.084
G1X15.330
G2X16.320Y15.895I0.000J-1.588
G2X16.715Y15.588I-0.765J-1.391
G2X17.086Y15.062I-1.084J-1.159
G1X17.193Y14.834
X17.268Y14.703
X17.327Y14.761
G2X17.853Y15.132I1.159J-1.084
G1X18.249Y15.291
G2X18.862Y15.415I0.613J-1.464
G1X18.937
G2X19.551Y15.291I0.000J-1.588
G1X19.947Y15.132
G2X20.472Y14.761I-0.634J-1.455
G1X20.548Y14.686
G2X20.919Y14.160I-1.084J-1.159
G1X20.994Y14.010
X21.114Y13.746
X21.149Y13.709
X21.364Y13.461
X21.380
X21.540Y13.860
G2X21.911Y14.386I1.455J-0.634
G1X21.986Y14.461
X22.061Y14.536
G2X22.587Y14.907I1.159J-1.084
G2X23.371Y15.114I0.784J-1.380
G1X23.747
G2X24.906Y14.611I0.000J-1.588
G1X24.981Y14.536
X25.057Y14.461
G2X25.428Y13.935I-1.084J-1.159
G1X25.508Y13.772
X25.728Y13.409
X25.882Y13.034
G2X26.179Y12.582I-1.158J-1.086
G1X26.254Y12.432
X26.411Y12.045
X26.564Y11.660
X26.639Y11.435
G2X26.762Y10.821I-1.464J-0.613
G1Y10.295
G2X26.687Y9.813I-1.588J0.000
G1Y9.318
G2X26.184Y8.159I-1.588J0.000
G1X26.109Y8.084
X26.033Y8.009
G2X25.262Y7.554I-1.159J1.084
G2X24.649Y7.430I-0.613J1.464
G1X24.423
G2X23.810Y7.554I0.000J1.588
G1X23.701Y7.585
G2X23.038Y7.788I0.121J1.583
G1X22.887Y7.863
X22.531Y8.077
G2X22.136Y8.384I0.765J1.391
G1X22.096Y8.424
X22.090Y8.423
X22.051Y8.384
G2X21.525Y8.013I-1.159J1.084
G2X20.741Y7.806I-0.784J1.380
G1X20.374
G2X20.167Y7.031I-1.587J0.009
G1X20.092Y6.881
G2X19.721Y6.355I-1.455J0.634
G1X19.646Y6.280
G2X19.120Y5.909I-1.159J1.084
G1X18.970Y5.834
X18.897Y5.795
X18.669Y5.529
X18.594Y5.454
X18.519Y5.378
X18.444Y5.303
G2X17.672Y4.848I-1.159J1.084
G2X17.091Y4.725I-0.613J1.464
G1X16.919Y4.681
X17.166Y4.466
X17.241Y4.391
X17.316Y4.316
X17.391Y4.241
G2X17.763Y3.715I-1.084J-1.159
G1X17.835Y3.571
X17.917Y3.489
X17.993Y3.414
X18.068Y3.339
X18.143Y3.264
G2X18.646Y2.104I-1.084J-1.159
G1Y1.578
G2X18.581Y1.127I-1.588J0.000
G1X46.306
G2X45.658Y1.546I0.511J1.503
G1X45.583Y1.621
X45.507Y1.696
X45.432Y1.771
X45.357Y1.846
G2X45.068Y2.210I1.084J1.159
G1X45.056Y2.222
X44.981Y2.297
X44.970Y2.308
G2X44.606Y2.598I0.796J1.374
G1X44.530Y2.673
X44.455Y2.748
X44.380Y2.823
X44.305Y2.899
G2X43.934Y3.424I1.084J1.159
G1X43.775Y3.820
G2X43.652Y4.434I1.464J0.613
G1Y4.885
G2X43.859Y5.669I1.588J0.000
G2X44.230Y6.194I1.455J-0.634
G1X44.305Y6.270
X44.380Y6.345
G2X44.775Y6.652I1.159J-1.084
G1X44.779Y6.655
G2X45.282Y7.772I1.587J-0.042
G2X45.808Y8.144I1.159J-1.084
G1X46.116Y8.278
X46.409Y8.444
X46.559Y8.519
X46.955Y8.678
G2X47.569Y8.802I0.613J-1.464
G1X48.170
G2X48.954Y8.595I0.000J-1.588
G1X49.104Y8.519
G2X49.630Y8.148I-0.634J-1.455
G2X50.001Y7.623I-1.084J-1.159
G1X50.038Y7.555
X50.169Y7.619
X50.171Y7.623
G2X50.542Y8.148I1.455J-0.634
G1X50.553Y8.160
X50.577Y8.199
G2X50.490Y8.717I1.501J0.518
G1Y9.393
X50.493Y9.487
X50.199Y9.459
X49.973
G2X49.440Y9.552I0.000J1.588
G1X49.059Y9.658
X48.663Y9.817
G2X48.138Y10.188I0.634J1.455
G1X48.062Y10.263
X47.987Y10.338
X47.912Y10.413
X47.772Y10.562
G2X47.010Y11.014I0.397J1.537
G1X46.935Y11.090
X46.860Y11.165
G2X46.374Y12.091I1.084J1.159
G2X46.282Y12.625I1.495J0.533
G1Y12.700
G2X46.374Y13.233I1.588J0.000
G1X46.480Y13.614
G2X46.779Y14.216I1.539J-0.388
G2X47.170Y14.685I1.391J-0.765
G1X47.165Y14.696
X47.093Y14.840
X47.010Y14.922
X46.935Y14.997
G2X46.564Y15.523I1.084J1.159
G2X46.357Y16.307I1.380J0.784
G1Y16.983
G2X46.564Y17.768I1.588J0.000
G1X46.639Y17.918
G2X47.010Y18.444I1.455J-0.634
G1X47.085Y18.519
X47.161Y18.594
G2X47.923Y19.046I1.159J-1.084
G1X48.062Y19.195
X48.138Y19.270
X48.213Y19.345
X48.288Y19.420
G2X48.683Y19.727I1.159J-1.084
G2X49.276Y20.023I0.990J-1.241
G1X49.415Y20.092
G2X50.199Y20.299I0.784J-1.380
G1X50.950
G2X51.940Y19.953I0.000J-1.588
G1X52.022Y19.905
G2X52.561Y19.716I-0.245J-1.568
G2X53.087Y19.345I-0.634J-1.455
G1X53.162Y19.270
G2X53.665Y18.111I-1.084J-1.159
G1Y17.735
G2X53.444Y16.927I-1.588J0.000
G1X53.484Y16.770
X53.538Y16.715
X53.613Y16.640
G2X53.984Y16.114I-1.084J-1.159
G2X54.182Y15.497I-1.380J-0.784
G2X54.324Y15.037I-1.428J-0.693
G2X54.416Y14.504I-1.495J-0.533
G1Y14.428
G2X54.341Y13.946I-1.587J0.000
G1Y13.677
X54.285Y13.256
X54.289Y13.254
X54.440Y13.179
G2X54.965Y12.807I-0.634J-1.455
G1X55.111Y12.652
X55.266Y12.507
G2X55.573Y12.112I-1.084J-1.159
G1X55.706Y11.917
X55.949Y11.586
G2X56.247Y10.984I-1.241J-0.990
G1X56.322Y10.758
G2X56.445Y10.145I-1.464J-0.613
G1Y10.086
G2X57.145Y9.651I-0.460J-1.519
G1X57.220Y9.576
X57.295Y9.501
G2X57.666Y8.975I-1.084J-1.159
G1X57.825Y8.579
X57.918Y8.275
G2X58.276Y7.602I-1.181J-1.060
G2X58.399Y6.989I-1.464J-0.613
G1Y6.923
X58.465
G2X59.078Y6.800I0.000J-1.588
G2X59.850Y6.345I-0.388J-1.539
G1X59.925Y6.270
X60.000Y6.194
X60.075Y6.119
G2X60.447Y5.594I-1.084J-1.159
G1X60.604Y5.203
G2X60.906Y4.596I-1.237J-0.994
G2X61.030Y3.983I-1.464J-0.613
G1Y3.607
G2X60.822Y2.823I-1.588J0.000
G1X60.747Y2.673
G2X60.376Y2.147I-1.455J0.634
G1X60.051Y1.881
G2X59.929Y1.341I-1.586J0.073
G1X59.859Y1.127
X63.442
X63.496Y1.131
X63.500Y1.185
Y88.842
X63.496Y88.896
X63.442Y88.900
X53.876
G2X53.966Y88.374I-1.498J-0.526
G1Y87.848
G2X53.758Y87.064I-1.587J0.000
G1X53.683Y86.914
G2X53.440Y86.522I-1.455J0.634
G1Y85.894
G2X53.364Y85.410I-1.587J0.000
G2X53.157Y84.659I-1.587J0.033
G1X53.105Y84.551
X53.130Y84.551
X53.580
G2X54.114Y84.458I0.000J-1.587
G1X54.494Y84.352
G2X55.266Y83.897I-0.388J-1.539
G1X55.341Y83.822
X55.416Y83.747
G2X55.787Y83.221I-1.084J-1.159
G2X55.995Y82.437I-1.380J-0.784
G1Y82.260
X56.174Y82.000
G2X56.521Y81.009I-1.241J-0.990
G1Y80.333
G2X56.174Y79.343I-1.588J0.000
G2X55.867Y78.948I-1.391J0.765
G1X55.792Y78.873
X55.717Y78.798
X55.642Y78.723
X55.567Y78.648
X55.491Y78.572
X55.416Y78.497
X55.302Y78.386
X55.191Y78.272
X55.116Y78.197
X55.041Y78.122
X54.965Y78.046
G2X54.440Y77.675I-1.159J1.084
G1X54.044Y77.516
X53.665Y77.410
Y77.284
G2X53.740Y76.801I-1.512J-0.483
G1Y76.275
X53.740Y76.233
G2X53.815Y75.749I-1.512J-0.484
G1Y75.373
G2X53.608Y74.589I-1.587J0.000
G2X53.237Y74.064I-1.455J0.634
G1X53.162Y73.988
X53.087Y73.913
G2X51.927Y73.410I-1.159J1.084
G1X51.551
G2X50.392Y73.913I0.000J1.587
G2X50.021Y74.439I1.084J1.159
G2X49.814Y75.223I1.380J0.784
G1Y75.460
X49.802Y75.480
X49.791Y75.491
G2X49.501Y75.855I1.084J1.159
G1X49.258Y76.187
G2X48.912Y77.177I1.241J0.990
G1Y77.778
X48.955Y78.145
X48.921Y78.144
X48.878
G2X48.395Y78.069I-0.483J1.512
G1X48.254
Y77.778
G2X48.131Y77.165I-1.588J0.000
G2X47.833Y76.563I-1.539J0.388
G2X47.526Y76.168I-1.391J0.765
G1X47.451Y76.093
X47.375Y76.017
X47.300Y75.942
X47.225Y75.867
X47.150Y75.792
X47.075Y75.717
X47.000Y75.642
X46.925Y75.567
G2X46.399Y75.195I-1.159J1.084
G1X46.003Y75.036
G2X45.389Y74.913I-0.613J1.464
G1X45.014
G2X44.313Y75.076I0.000J1.588
G1X44.189Y75.065
X44.144Y75.045
X43.748Y74.886
G2X43.135Y74.763I-0.613J1.464
G1X42.834
G2X42.221Y74.886I0.000J1.588
G1X41.996Y74.961
X41.919Y74.983
X41.897Y74.973
X41.815Y74.890
X41.739Y74.815
G2X41.214Y74.444I-1.159J1.084
G1X41.063Y74.369
G2X40.446Y74.170I-0.784J1.380
G1X40.141Y74.059
X39.722Y73.948
X39.417Y73.770
X39.335Y73.688
G2X38.809Y73.317I-1.159J1.084
G1X38.659Y73.242
X38.508Y73.166
X38.112Y73.007
X37.887Y72.932
G2X37.273Y72.809I-0.613J1.464
G1X37.048
G2X36.264Y73.016I0.000J1.588
G1X36.114Y73.091
G2X35.588Y73.462I0.634J1.455
G1X35.513Y73.538
G2X35.142Y74.063I1.084J1.159
G1X35.066Y74.214
X34.991Y74.364
G2X34.784Y75.148I1.380J0.784
G1Y75.674
G2X34.991Y76.458I1.588J0.000
G2X35.362Y76.984I1.455J-0.634
G1X35.474Y77.091
X35.367Y77.295
G2X35.160Y78.079I1.380J0.784
G1Y78.530
G2X35.367Y79.314I1.588J0.000
G1X35.442Y79.464
G2X35.813Y79.990I1.455J-0.634
G1X35.888Y80.065
G2X37.048Y80.568I1.159J-1.084
G1X37.799
G2X38.384Y80.457I0.000J-1.587
G1X38.443Y80.516
X38.519Y80.591
X38.594Y80.666
X38.669Y80.741
X38.744Y80.816
X38.819Y80.891
X38.981Y81.042
X38.894Y81.128
X38.819Y81.203
X38.744Y81.278
X38.669Y81.353
G2X38.301Y81.870I1.084J1.159
G2X37.997Y82.330I1.151J1.093
G2X37.790Y83.114I1.380J0.784
G1Y83.489
G2X37.997Y84.273I1.587J0.000
G1X38.072Y84.424
G2X38.443Y84.949I1.455J-0.634
G2X38.838Y85.256I1.159J-1.084
G2X39.828Y85.603I0.990J-1.241
G1X40.505
X40.551Y85.602
G2X41.197Y85.878I0.930J-1.286
G1X41.295Y86.207
X41.370Y86.432
G2X41.672Y87.039I1.539J-0.388
G1X41.782Y87.338
X41.865Y87.705
G2X42.055Y88.256I1.570J-0.233
G2X42.426Y88.782I1.455J-0.634
G1X42.501Y88.857
X42.543Y88.900
X1.410
X1.357Y88.896
X1.353Y88.842
Y1.185
X1.357Y1.131
X1.410Y1.127
G0Z5.080
G0X14.795Y19.163
G1Z-6.000F300.0
G1Y19.764F1000.0
G2X15.002Y20.548I1.588J0.000
G1X15.185Y20.863
X15.152Y20.934
X15.077Y21.084
X14.918Y21.480
G2X14.795Y22.093I1.464J0.613
G1Y22.770
G2X15.039Y23.616I1.588J0.000
G2X16.608Y24.959I1.568J-0.245
G1X16.833
X17.158Y24.925
X17.124Y25.250
Y25.475
G2X17.331Y26.259I1.588J0.000
G1X17.407Y26.410
G2X18.228Y27.231I1.455J-0.634
G1X18.379Y27.306
G2X19.163Y27.514I0.784J-1.380
G1X19.388
G2X20.172Y27.306I0.000J-1.588
G1X20.323Y27.231
G2X20.848Y26.860I-0.634J-1.455
G2X21.183Y26.412I-1.084J-1.159
G1X21.449Y26.184
G2X21.821Y25.658I-1.084J-1.159
G1X21.896Y25.508
G2X22.103Y24.724I-1.380J-0.784
G1Y24.630
X22.126Y24.606
X22.201Y24.530
G2X22.631Y23.847I-1.084J-1.159
G1X22.798Y23.554
X22.917Y23.289
X22.952Y23.253
X23.028Y23.178
X23.103Y23.103
X23.178Y23.028
G2X23.664Y22.101I-1.084J-1.159
G2X23.756Y21.567I-1.495J-0.533
G1Y21.492
G2X23.664Y20.959I-1.588J0.000
G2X23.474Y20.408I-1.570J0.233
G2X23.103Y19.882I-1.455J0.634
G1X23.028Y19.807
G2X22.550Y19.458I-1.159J1.084
G1X22.497Y19.356
G2X21.675Y18.534I-1.455J0.634
G2X20.891Y18.327I-0.784J1.380
G1X20.440
G2X19.656Y18.534I0.000J1.588
G1X19.411Y18.668
X19.341Y18.529
G2X18.970Y18.003I-1.455J0.634
G1X18.894Y17.928
X18.819Y17.853
X18.744Y17.778
X18.669Y17.703
G2X17.897Y17.248I-1.159J1.084
G2X17.284Y17.124I-0.613J1.464
G1X16.833
G2X16.049Y17.331I0.000J1.588
G2X15.523Y17.703I0.634J1.455
G1X15.448Y17.778
X15.373Y17.853
G2X15.002Y18.379I1.084J1.159
G2X14.795Y19.163I1.380J0.784
G0Z5.080
G0X55.083Y51.317
G1Z-6.000F300.0
G1X54.557F1000.0
G2X53.773Y51.524I0.000J1.587
G1X53.592Y51.617
X53.130
G2X52.345Y51.824I0.000J1.587
G2X51.820Y52.196I0.634J1.455
G1X51.745Y52.271
X51.670Y52.346
X51.594Y52.421
G2X51.223Y52.947I1.084J1.159
G2X51.033Y53.498I1.380J0.784
G2X50.941Y54.031I1.495J0.533
G1Y54.257
G2X51.016Y54.739I1.587J0.000
G1Y55.083
G2X51.519Y56.243I1.588J0.000
G1X51.594Y56.318
G2X52.120Y56.689I1.159J-1.084
G2X52.904Y56.896I0.784J-1.380
G1X52.979
G2X53.763Y56.689I0.000J-1.588
G2X54.401Y56.185I-0.634J-1.455
G1X54.440Y56.163
G2X54.914Y55.844I-0.634J-1.455
G1X55.008
G2X55.781Y55.644I0.000J-1.587
G2X56.544Y55.191I-0.397J-1.537
G2X57.047Y54.031I-1.084J-1.159
G1Y53.280
G2X56.840Y52.496I-1.588J0.000
G2X56.468Y51.970I-1.455J0.634
G1X56.393Y51.895
G2X55.868Y51.524I-1.159J1.084
G2X55.083Y51.317I-0.784J1.380
G0Z5.080
G0X53.956Y32.755
G1Z-6.000F300.0
G1X53.355F1000.0
G2X52.196Y33.258I0.000J1.588
G1X52.120Y33.333
X52.045Y33.409
G2X51.542Y34.568I1.084J1.159
G1Y35.094
G2X51.749Y35.878I1.588J0.000
G2X52.120Y36.404I1.455J-0.634
G2X52.646Y36.775I1.159J-1.084
G2X53.430Y36.982I0.784J-1.380
G1X53.881
G2X54.665Y36.775I0.000J-1.588
G2X55.191Y36.404I-0.634J-1.455
G1X55.266Y36.329
G2X55.721Y35.557I-1.084J-1.159
G2X55.844Y34.944I-1.464J-0.613
G1Y34.718
G2X55.637Y33.934I-1.587J0.000
G2X55.266Y33.409I-1.455J0.634
G1X55.191Y33.333
X55.116Y33.258
G2X53.956Y32.755I-1.159J1.084
G0Z5.080
G0X9.053Y1.128
G1Z-7.000F300.0
G1X1.393F1000.0
X1.357Y1.131
X1.353Y1.185
Y3.351
X9.091
X9.084Y3.457
Y4.058
X9.087Y4.166
X9.060Y4.181
X8.869Y4.280
X8.692Y4.405
X8.535Y4.552
X8.459Y4.627
X8.312Y4.784
X8.188Y4.961
X8.088Y5.153
X7.999Y5.336
X7.934Y5.531
X7.926Y5.573
X1.353
Y7.796
X8.308
X8.303Y7.812
X8.268Y8.001
X8.057Y8.068
X7.858Y8.163
X7.708Y8.239
X7.557Y8.314
X7.366Y8.413
X7.189Y8.538
X7.032Y8.685
X6.956Y8.760
X6.881Y8.835
X6.736Y8.991
X6.610Y9.168
X6.509Y9.363
X6.436Y9.569
X6.392Y9.782
X6.378Y9.995
Y10.018
X1.353
Y12.241
X5.521
X5.445Y12.399
X5.380Y12.591
X5.264Y12.730
X5.164Y12.882
X5.082Y13.043
X4.993Y13.227
X4.928Y13.422
X4.888Y13.624
X4.875Y13.827
Y14.225
X4.841Y14.257
X4.689Y14.357
X4.561Y14.463
X1.353
Y16.686
X2.355
G0Z5.080
G0X25.709Y1.128
G1Z-7.000F300.0
G1X19.081F1000.0
X19.097Y1.353
Y2.254
X19.084Y2.458
X19.044Y2.660
X18.979Y2.855
X18.890Y3.039
X18.791Y3.230
X18.705Y3.351
X25.131
X25.143Y3.411
X25.208Y3.607
X25.297Y3.790
X25.372Y3.940
X25.447Y4.091
X25.557Y4.299
X25.699Y4.491
X25.869Y4.661
X26.061Y4.803
X26.269Y4.912
X26.453Y5.001
X26.648Y5.067
X26.850Y5.106
X27.053Y5.119
X27.128
X27.332Y5.106
X27.534Y5.067
X27.729Y5.001
X27.913Y4.912
X28.205Y4.746
X28.395Y4.673
X28.575Y4.575
X28.741Y4.455
X28.889Y4.316
X28.964Y4.241
X29.039Y4.165
X29.115Y4.090
X29.190Y4.015
X29.334Y3.861
X29.458Y3.687
X29.558Y3.496
X29.611Y3.351
G0Z5.080
G0X29.295Y1.128
G1Z-7.000F300.0
G1X45.759F1000.0
X45.587Y1.250
X45.432Y1.396
X45.357Y1.471
X45.282Y1.546
X45.124Y1.717
X44.992Y1.910
X44.981Y1.922
X44.973Y1.930
X44.784Y2.029
X44.610Y2.152
X44.455Y2.297
X44.339Y2.418
X44.237Y2.550
X44.148Y2.692
X44.016Y2.887
X44.004Y2.899
X43.929Y2.974
X43.782Y3.131
X43.657Y3.308
X43.635Y3.351
X29.611
G0Z5.080
G0X43.400Y5.573
G1Z-7.000F300.0
G1X19.211F1000.0
X19.266Y5.679
X19.267Y5.682
X19.468Y5.816
X19.646Y5.980
X19.721Y6.055
X19.796Y6.130
X19.871Y6.205
X19.946Y6.280
X20.022Y6.355
X20.097Y6.430
X20.172Y6.506
X20.319Y6.663
X20.444Y6.840
X20.543Y7.031
X20.628Y7.205
X20.816
X21.025Y7.219
X21.231Y7.260
X21.429Y7.328
X21.609Y7.385
X21.782Y7.464
X21.945Y7.562
X22.093Y7.679
X22.292Y7.529
X22.512Y7.412
X22.662Y7.337
X22.812Y7.262
X22.996Y7.173
X23.191Y7.107
X23.393Y7.068
X23.596Y7.055
X24.799
X25.002Y7.068
X25.204Y7.107
X25.399Y7.173
X25.583Y7.262
X25.733Y7.337
X25.924Y7.436
X26.101Y7.561
X26.259Y7.708
X26.334Y7.783
X26.346Y7.796
X44.550
X44.559Y7.814
X44.684Y7.991
X44.831Y8.148
X44.989Y8.295
X45.165Y8.420
X45.357Y8.519
X45.507Y8.595
X45.691Y8.684
X45.886Y8.749
X46.088Y8.789
X46.291Y8.802
X46.635
X46.721Y8.826
X46.893Y8.909
X47.074Y8.971
X47.261Y9.010
X47.434Y9.061
X47.613Y9.092
X47.794Y9.102
X48.245
X48.454Y9.088
X48.660Y9.047
X48.858Y8.979
X49.073Y8.908
X49.277Y8.807
X49.464Y8.677
X49.630Y8.524
X49.705Y8.449
X49.780Y8.374
X49.855Y8.299
X49.966Y8.184
X50.123Y8.230
X50.230Y8.361
X50.200Y8.538
X50.189Y8.717
Y9.093
X50.204Y9.309
X49.748
X49.567Y9.319
X49.388Y9.350
X49.214Y9.401
X49.024Y9.442
X48.838Y9.506
X48.663Y9.591
X48.478Y9.687
X48.307Y9.806
X48.040Y9.991
X47.861Y10.018
X27.077
X27.093Y10.073
X27.127Y10.258
X27.138Y10.446
Y10.521
X27.127Y10.701
X27.096Y10.880
X27.045Y11.054
X27.002Y11.257
X26.931Y11.455
X26.835Y11.641
X26.716Y11.811
X26.668Y11.893
X26.627Y12.080
X26.571Y12.241
X45.981
Y12.894
X45.925Y13.132
X45.906Y13.376
Y13.752
X45.920Y13.961
X45.961Y14.167
X46.029Y14.365
X46.061Y14.463
X25.763
X25.701Y14.583
X25.577Y14.757
X25.432Y14.912
X25.357Y14.987
X25.282Y15.062
X25.207Y15.137
X25.049Y15.284
X24.872Y15.409
X24.681Y15.508
X24.498Y15.597
X24.303Y15.663
X24.101Y15.702
X23.897Y15.715
X23.446
X23.243Y15.702
X23.041Y15.663
X22.846Y15.597
X22.662Y15.508
X22.471Y15.409
X22.294Y15.284
X22.136Y15.137
X22.125Y15.126
X21.932Y14.995
X21.761Y14.836
X21.685Y14.761
X21.610Y14.686
X21.535Y14.611
X21.420Y14.491
X21.398Y14.463
X21.094
G0Z5.080
G0X12.543Y12.241
G1Z-7.000F300.0
G1X12.888F1000.0
X12.832Y12.396
X12.792Y12.561
X12.770Y12.729
X12.714Y12.955
X12.672Y13.043
X12.579Y13.236
X12.513Y13.439
X12.445Y13.637
X12.404Y13.844
X12.390Y14.053
Y14.463
X11.073
X10.975Y14.652
X10.850Y14.829
X10.703Y14.987
X10.628Y15.062
X10.553Y15.137
X10.382Y15.295
X10.189Y15.426
X10.047Y15.547
X9.892Y15.650
X9.727Y15.734
X9.723Y15.736
X9.647Y15.889
X9.547Y16.080
X9.422Y16.257
X9.275Y16.415
X9.200Y16.490
X9.125Y16.565
X8.997Y16.686
X14.331
X14.428Y16.692
X14.804
X14.885Y16.686
X46.056
G0Z5.080
G0X63.460Y1.128
G1Z-7.000F300.0
G1X60.138F1000.0
X60.186Y1.345
X60.265Y1.677
X60.451Y1.846
X60.526Y1.922
X60.601Y1.997
X60.749Y2.154
X60.873Y2.331
X60.973Y2.522
X61.066Y2.715
X61.132Y2.919
X61.200Y3.117
X61.241Y3.323
X61.243Y3.351
X63.500
Y5.573
X60.656
X60.615Y5.701
X60.522Y5.894
X60.423Y6.085
X60.298Y6.262
X60.151Y6.420
X59.993Y6.567
X59.816Y6.692
X59.625Y6.791
X59.475Y6.866
X59.282Y6.959
X59.078Y7.025
X58.848Y7.102
X58.608Y7.142
X58.532Y7.447
X58.492Y7.638
X58.438Y7.796
X63.500
Y10.018
X57.114
X57.036Y10.073
X56.844Y10.173
X56.744Y10.225
X56.713Y10.469
X56.643Y10.706
X56.539Y10.929
X56.443Y11.114
X56.324Y11.285
X56.313Y11.305
X56.230Y11.470
X56.126Y11.626
X56.006Y11.767
X55.873Y11.962
X55.863Y11.981
X55.765Y12.170
X55.715Y12.241
X63.500
Y14.463
X54.921
X54.862Y14.577
X54.737Y14.754
X54.590Y14.912
X54.588Y14.913
X54.550Y15.037
X54.492Y15.287
Y15.330
X54.478Y15.539
X54.436Y15.745
X54.368Y15.944
X54.266Y16.230
Y16.533
X54.256Y16.686
X63.500
Y18.908
X54.050
X53.984Y19.045
X53.888Y19.230
X53.769Y19.401
X53.681Y19.543
X53.578Y19.676
X53.462Y19.796
X53.305Y19.943
X53.128Y20.068
X52.937Y20.167
X52.786Y20.242
X52.522Y20.362
X52.486Y20.397
X52.328Y20.544
X52.151Y20.669
X51.960Y20.769
X51.776Y20.858
X51.581Y20.923
X51.379Y20.963
X51.176Y20.976
X50.650
X50.446Y20.963
X50.244Y20.923
X50.049Y20.858
X49.866Y20.769
X49.715Y20.693
X49.530Y20.598
X49.359Y20.479
X49.340Y20.468
X49.175Y20.385
X49.021Y20.283
X48.880Y20.164
X48.738Y20.092
X48.588Y20.017
X48.397Y19.918
X48.220Y19.793
X48.062Y19.646
X47.987Y19.571
X47.912Y19.496
X47.807Y19.388
X47.536Y19.266
X47.386Y19.190
X47.194Y19.091
X47.018Y18.966
X46.956Y18.908
X22.699
X22.647Y18.835
X22.501Y18.680
X22.426Y18.604
X22.351Y18.529
X22.276Y18.454
X22.119Y18.307
X21.942Y18.182
X21.750Y18.083
X21.567Y17.994
X21.372Y17.928
X21.170Y17.889
X20.966Y17.876
X20.440
X20.262Y17.886
X20.085Y17.916
X20.022Y17.853
X19.866Y17.707
X19.689Y17.582
X19.494Y17.481
X19.287Y17.408
X19.075Y17.364
X18.862Y17.350
X18.768
X18.744Y17.327
X18.587Y17.180
X18.410Y17.055
X18.218Y16.956
X18.035Y16.867
X17.840Y16.801
X17.638Y16.762
X17.434Y16.749
X16.758
X16.554Y16.762
X16.352Y16.801
X16.157Y16.867
X15.974Y16.956
X15.789Y17.051
X15.618Y17.170
X15.476Y17.258
X15.343Y17.361
X15.223Y17.477
X15.148Y17.552
X15.032Y17.673
X14.929Y17.805
X14.841Y17.947
X14.708Y18.142
X14.588Y18.283
X14.485Y18.438
X14.401Y18.604
X14.312Y18.788
X14.271Y18.908
X7.307
X7.293Y18.936
X7.168Y19.113
X7.021Y19.270
X6.946Y19.345
X6.871Y19.420
X6.796Y19.496
X6.720Y19.571
X6.594Y19.691
X6.455Y19.798
X6.306Y19.888
X6.119Y20.097
X6.044Y20.172
X5.969Y20.247
X5.803Y20.401
X5.616Y20.530
X5.412Y20.632
X5.197Y20.702
X4.967Y20.778
X4.952Y20.823
X4.912Y21.014
X4.871Y21.131
X14.729
X14.729Y21.132
X14.668Y21.372
X14.626Y21.460
X14.540Y21.635
X14.477Y21.820
X14.436Y22.011
X14.385Y22.185
X14.354Y22.364
X14.344Y22.544
Y22.588
X14.288Y22.826
X14.269Y23.070
Y23.353
X1.353
Y25.576
X15.749
X15.782Y25.592
X15.977Y25.657
X16.179Y25.697
X16.382Y25.710
X16.749
X16.763Y25.911
X16.802Y26.111
X16.867Y26.303
X16.956Y26.485
X17.031Y26.635
X17.130Y26.826
X17.255Y27.003
X17.402Y27.161
X17.560Y27.308
X17.736Y27.433
X17.928Y27.532
X18.078Y27.607
X18.253Y27.693
X18.438Y27.757
X18.629Y27.797
X18.634Y27.798
X1.353
Y30.021
G0Z5.080
G0X23.978Y21.131
G1Z-7.000F300.0
G1X63.500F1000.0
Y23.353
X23.228
X23.178Y23.403
X23.176Y23.405
X23.110Y23.600
X23.018Y23.787
X22.903Y23.961
X22.767Y24.116
X22.675Y24.329
X22.552Y24.528
X22.402Y24.706
X22.384Y24.895
X22.343Y25.082
X22.280Y25.262
X22.214Y25.465
X22.161Y25.576
X63.500
G0Z5.080
G0Y27.798
G1Z-7.000F300.0
G1X53.762F1000.0
X53.695Y27.775
X53.489Y27.734
X53.280Y27.720
X53.130
X52.921Y27.734
X52.714Y27.775
X52.647Y27.798
X19.841
G0Z5.080
G0X1.353Y30.021
G1Z-7.000F300.0
G1X50.866F1000.0
Y30.360
X50.868Y30.435
X50.866Y30.510
Y30.612
X50.730Y30.799
X50.622Y31.003
X50.547Y31.154
X50.458Y31.337
X50.392Y31.532
X50.353Y31.734
X50.340Y31.938
Y32.238
X50.340Y32.243
X1.353
Y34.466
X50.828
X50.804Y34.585
X50.791Y34.793
Y34.963
X50.768Y34.987
X50.693Y35.062
X50.547Y35.218
X50.423Y35.392
X50.324Y35.581
X50.242Y35.663
X50.167Y35.738
X50.020Y35.896
X49.895Y36.073
X49.795Y36.264
X49.720Y36.414
X49.709Y36.434
X49.590Y36.605
X49.547Y36.688
X1.353
Y38.911
X49.250
X49.255Y38.926
X49.345Y39.110
X49.444Y39.301
X49.569Y39.478
X49.716Y39.635
X49.873Y39.782
X50.050Y39.907
X50.241Y40.006
X50.425Y40.096
X50.620Y40.161
X50.822Y40.200
X51.025Y40.214
X51.627
X51.777Y40.206
X51.927Y40.214
X52.604
X52.813Y40.200
X53.019Y40.158
X53.217Y40.090
X53.362Y40.046
X53.566Y40.002
X53.763Y39.931
X53.949Y39.835
X54.120Y39.717
X54.307Y39.596
X54.478Y39.448
X54.625Y39.278
X54.746Y39.090
X54.870Y38.911
G0Z5.080
G0X63.500Y27.798
G1Z-7.000F300.0
G1Y30.021F1000.0
X55.393
Y30.360
X55.380Y30.563
X55.341Y30.765
X55.275Y30.960
X55.186Y31.144
X55.145Y31.232
X55.103Y31.409
X55.042Y31.582
X54.961Y31.745
X54.886Y31.895
X54.792Y32.077
Y32.079
X55.609
X55.777Y32.088
X55.944Y32.114
X56.106Y32.159
X56.339Y32.194
X56.500Y32.243
X63.500
Y34.466
X58.099
Y34.718
X58.086Y34.922
X58.046Y35.124
X57.981Y35.319
X57.892Y35.502
X57.792Y35.694
X57.667Y35.871
X57.520Y36.028
X57.445Y36.103
X57.288Y36.250
X57.111Y36.375
X56.920Y36.474
X56.769Y36.550
X56.746Y36.563
X56.746Y36.597
Y36.688
X63.500
Y38.911
X54.870
G0Z5.080
G0X63.500Y41.133
G1Z-7.000F300.0
G1X1.353F1000.0
Y43.356
X63.500
Y45.578
X7.087
X7.167Y45.663
X7.292Y45.840
X7.393Y46.035
X7.466Y46.242
X7.510Y46.454
X7.524Y46.667
Y46.892
X7.510Y47.105
X7.466Y47.318
X7.393Y47.524
X7.292Y47.719
X7.234Y47.801
X63.500
Y50.023
X57.095
X57.137Y50.141
X57.178Y50.328
X57.196Y50.517
X57.320Y50.660
X57.426Y50.817
X57.512Y50.984
X57.520Y50.993
X57.596Y51.068
X57.671Y51.143
X57.746Y51.219
X57.893Y51.376
X58.018Y51.553
X58.117Y51.744
X58.206Y51.928
X58.272Y52.123
X58.296Y52.246
X63.500
Y54.468
X57.919
X57.896Y54.587
X57.830Y54.782
X57.741Y54.966
X57.666Y55.116
X57.567Y55.307
X57.442Y55.484
X57.295Y55.642
X57.220Y55.717
X57.145Y55.792
X57.070Y55.867
X56.994Y55.942
X56.919Y56.017
X56.762Y56.165
X56.585Y56.289
X56.394Y56.389
X56.243Y56.464
X56.090Y56.540
X55.928Y56.600
X55.761Y56.642
X55.739Y56.691
X63.500
Y58.913
X53.506
X53.509Y58.918
X53.608Y59.109
X53.697Y59.292
X53.763Y59.487
X53.802Y59.689
X53.815Y59.893
Y59.968
X53.802Y60.172
X53.763Y60.374
X53.697Y60.569
X53.608Y60.752
X53.509Y60.943
X53.384Y61.120
X53.369Y61.136
X63.500
Y63.358
X51.704
X51.654Y63.457
X51.555Y63.649
X51.430Y63.826
X51.283Y63.983
X51.126Y64.130
X50.949Y64.255
X50.757Y64.354
X50.607Y64.429
X50.424Y64.519
X50.229Y64.584
X50.027Y64.624
X49.823Y64.637
X49.598
X49.389Y64.623
X49.182Y64.581
X48.984Y64.513
X48.770Y64.443
X48.566Y64.341
X48.378Y64.212
X48.213Y64.058
X48.138Y63.983
X48.062Y63.908
X47.947Y63.788
X47.844Y63.655
X47.756Y63.513
X47.648Y63.358
G0Z5.080
G0X1.353Y45.578
G1Z-7.000F300.0
G1X4.114F1000.0
X4.106Y45.588
X3.980Y45.765
X3.879Y45.960
X3.806Y46.166
X3.762Y46.379
X3.748Y46.592
Y46.967
X3.762Y47.180
X3.806Y47.393
X3.879Y47.599
X3.980Y47.794
X3.985Y47.801
X1.353
Y50.023
X52.190
X52.002Y50.121
X51.825Y50.246
X51.670Y50.392
X51.594Y50.467
X51.519Y50.542
X51.444Y50.617
X51.291Y50.783
X51.161Y50.970
X51.060Y51.175
X50.989Y51.389
X50.921Y51.587
X50.880Y51.793
X50.866Y52.002
Y52.246
X1.353
Y54.468
X50.265
Y54.933
X50.278Y55.137
X50.317Y55.339
X50.383Y55.534
X50.472Y55.717
X50.584Y55.930
X50.625Y56.116
X50.688Y56.297
X50.772Y56.469
X50.847Y56.619
X50.883Y56.691
X1.353
Y58.913
X50.159
X49.955Y58.939
X49.715Y59.008
X49.490Y59.114
X49.299Y59.213
X49.122Y59.338
X48.964Y59.485
X48.889Y59.560
X48.814Y59.635
X48.664Y59.796
X48.537Y59.979
X48.436Y60.177
X48.364Y60.385
X48.363Y60.387
X48.288Y60.462
X48.213Y60.537
X48.138Y60.612
X47.979Y60.783
X47.848Y60.976
X47.717Y61.136
X1.353
Y63.358
X47.648
G0Z5.080
G0X1.353Y65.581
G1Z-7.000F300.0
G1X63.500F1000.0
Y67.803
X1.353
Y70.026
X63.500
Y72.248
X51.370
X51.431Y72.260
X51.626Y72.326
X51.810Y72.415
X52.001Y72.514
X52.178Y72.639
X52.335Y72.786
X52.440Y72.894
X52.711Y73.016
X52.862Y73.091
X53.053Y73.191
X53.230Y73.315
X53.387Y73.462
X53.462Y73.538
X53.538Y73.613
X53.685Y73.770
X53.809Y73.947
X53.909Y74.138
X53.984Y74.289
X54.059Y74.439
X54.074Y74.471
X63.500
Y76.693
X54.785
X54.779Y76.779
X54.740Y76.981
X54.674Y77.176
X54.585Y77.360
X54.537Y77.460
X54.720Y77.558
X54.889Y77.679
X55.041Y77.821
X55.116Y77.896
X55.191Y77.971
X55.266Y78.046
X55.341Y78.122
X55.486Y78.277
X55.642Y78.422
X55.717Y78.497
X55.726Y78.506
X55.914Y78.604
X56.088Y78.728
X56.243Y78.873
X56.286Y78.916
X63.500
Y81.138
X56.883
X56.844Y81.340
X56.778Y81.535
X56.689Y81.718
X56.614Y81.869
X56.539Y82.019
X56.370Y82.315
Y82.738
X56.357Y82.941
X56.318Y83.143
X56.252Y83.338
X56.241Y83.361
X63.500
Y85.583
X53.669
X53.699Y85.685
X53.730Y85.864
X53.740Y86.044
Y86.420
X53.733Y86.570
X53.769Y86.632
X53.888Y86.803
X53.984Y86.989
X54.073Y87.172
X54.138Y87.367
X54.178Y87.569
X54.191Y87.773
Y87.787
X63.500
Y88.842
X63.496Y88.896
X63.460Y88.899
X54.126
G0Z5.080
G0X50.455Y72.248
G1Z-7.000F300.0
G1X38.468F1000.0
X38.262Y72.181
X38.076Y72.116
X37.882Y72.075
X37.708Y72.024
X37.529Y71.993
X37.349Y71.982
X37.123
X36.914Y71.996
X36.708Y72.038
X36.510Y72.106
X36.295Y72.176
X36.150Y72.248
X1.353
Y74.471
X34.562
X34.540Y74.514
X34.447Y74.707
X34.381Y74.910
X34.313Y75.108
X34.272Y75.315
X34.258Y75.524
Y76.050
X34.272Y76.259
X34.313Y76.465
X34.381Y76.663
X34.391Y76.693
X1.353
Y78.916
X34.650
X34.634Y79.131
Y79.431
X34.648Y79.640
X34.689Y79.847
X34.757Y80.045
X34.828Y80.259
X34.929Y80.463
X35.059Y80.651
X35.212Y80.816
X35.287Y80.891
X35.362Y80.967
X35.520Y81.114
X35.555Y81.138
X1.353
Y83.361
X37.122
X37.114Y83.489
Y84.015
X37.127Y84.219
X37.166Y84.421
X37.232Y84.616
X37.321Y84.799
X37.420Y84.991
X37.545Y85.168
X37.692Y85.325
X37.850Y85.472
X38.007Y85.583
X1.353
Y87.787
X41.492
X41.528Y87.963
X41.596Y88.161
X41.662Y88.364
X41.755Y88.557
X41.848Y88.739
Y88.899
X1.393
G0Z5.080
G0X44.410Y74.471
G1Z-7.000F300.0
G1X48.999F1000.0
G0Z5.080
G0X9.053Y1.127
G1Z-7.000F300.0
G1X9.008Y1.503F1000.0
Y1.879
G2X9.132Y2.492I1.588J0.000
G1X9.235Y2.780
G2X9.084Y3.457I1.436J0.676
G1Y4.058
X9.087Y4.166
X9.060Y4.181
G2X8.535Y4.552I0.634J1.455
G1X8.459Y4.627
G2X8.088Y5.153I1.084J1.159
G2X7.881Y5.937I1.380J0.784
G1Y6.162
G2X8.088Y6.946I1.588J0.000
G2X8.439Y7.453I1.455J-0.634
G2X8.268Y8.001I1.405J0.739
G1X7.858Y8.163
X7.708Y8.239
X7.557Y8.314
G2X7.032Y8.685I0.634J1.455
G1X6.956Y8.760
X6.881Y8.835
G2X6.378Y9.995I1.084J1.159
G1Y10.446
G2X6.444Y10.896I1.588J0.000
G1X6.426Y10.959
X6.342Y11.223
X6.055Y11.465
X5.980Y11.541
G2X5.608Y12.066I1.084J1.159
G1X5.533Y12.216
X5.380Y12.591
G2X5.082Y13.043I1.158J1.086
G2X4.875Y13.827I1.380J0.784
G1Y14.225
X4.841Y14.257
X4.550Y14.473
X4.176Y14.626
X4.025Y14.701
X3.669Y14.916
G2X3.274Y15.223I0.765J1.391
G1X3.199Y15.298
X3.124Y15.373
X3.049Y15.448
G2X2.594Y16.220I1.084J1.159
G1X2.502Y16.520
G2X2.037Y17.427I1.106J1.139
G1X1.962Y17.727
G2X1.869Y18.261I1.495J0.533
G1Y18.407
G2X1.396Y18.755I0.686J1.432
G1X1.353Y18.796
Y1.185
X1.357Y1.131
X1.410Y1.127
X9.053
G0Z5.080
G0X19.081
G1Z-7.000F300.0
G1X25.710F1000.0
X25.668Y1.170
G2X25.297Y1.696I1.084J1.159
G2X25.090Y2.480I1.380J0.784
G1Y3.006
G2X25.297Y3.790I1.588J0.000
G1X25.372Y3.940
X25.447Y4.091
G2X26.269Y4.912I1.455J-0.634
G2X27.053Y5.119I0.784J-1.380
G1X27.128
G2X27.913Y4.912I0.000J-1.588
G1X28.205Y4.746
G2X28.889Y4.316I-0.476J-1.515
G1X28.964Y4.241
X29.039Y4.165
X29.115Y4.090
X29.190Y4.015
G2X29.676Y3.089I-1.084J-1.159
G2X29.768Y2.555I-1.495J-0.533
G1Y2.330
G2X29.561Y1.545I-1.588J0.000
G2X29.294Y1.127I-1.455J0.634
G1X45.761
X45.432Y1.396
X45.357Y1.471
X45.282Y1.546
G2X44.992Y1.910I1.084J1.159
G1X44.981Y1.922
X44.973Y1.930
G2X44.455Y2.297I0.642J1.452
G2X44.148Y2.692I1.084J1.159
G1X44.016Y2.887
X44.004Y2.899
X43.929Y2.974
G2X43.558Y3.499I1.084J1.159
G1X43.483Y3.650
G2X43.276Y4.434I1.380J0.784
G1Y4.960
G2X43.622Y5.950I1.588J0.000
G2X43.929Y6.345I1.391J-0.765
G1X44.004Y6.420
X44.080Y6.495
X44.178Y6.591
Y6.688
G2X44.385Y7.472I1.588J0.000
G1X44.460Y7.623
G2X44.831Y8.148I1.455J-0.634
G2X45.357Y8.519I1.159J-1.084
G1X45.507Y8.595
G2X46.291Y8.802I0.784J-1.380
G1X46.635
X46.721Y8.826
G2X47.261Y9.010I0.773J-1.387
G2X47.794Y9.102I0.533J-1.495
G1X48.245
G2X48.858Y8.979I0.000J-1.588
G2X49.630Y8.524I-0.388J-1.539
G1X49.705Y8.449
X49.780Y8.374
X49.855Y8.299
X49.966Y8.184
X50.123Y8.230
X50.230Y8.361
X50.189Y8.717
Y9.093
X50.204Y9.309
X49.748
G2X49.214Y9.401I0.000J1.588
G2X48.663Y9.591I0.233J1.570
G1X48.307Y9.806
X48.040Y9.991
G2X47.386Y10.192I0.130J1.582
G2X46.860Y10.564I0.634J1.455
G1X46.785Y10.639
X46.710Y10.714
X46.635Y10.789
X46.559Y10.864
G2X46.188Y11.390I1.084J1.159
G2X45.981Y12.174I1.380J0.784
G1Y12.894
G2X45.906Y13.376I1.512J0.483
G1Y13.752
G2X46.029Y14.365I1.588J0.000
G2X46.473Y15.126I1.539J-0.388
G1X46.339Y15.373
X46.263Y15.523
G2X46.056Y16.307I1.380J0.784
G1Y17.059
G2X46.263Y17.843I1.588J0.000
G1X46.339Y17.993
X46.414Y18.143
X46.489Y18.294
G2X46.860Y18.819I1.455J-0.634
G2X47.386Y19.190I1.159J-1.084
G1X47.536Y19.266
X47.807Y19.388
X47.912Y19.496
X47.987Y19.571
X48.062Y19.646
G2X48.588Y20.017I1.159J-1.084
G1X48.738Y20.092
X48.880Y20.164
G2X49.340Y20.468I1.093J-1.151
G1X49.359Y20.479
X49.715Y20.693
X49.866Y20.769
G2X50.650Y20.976I0.784J-1.380
G1X51.176
G2X51.960Y20.769I0.000J-1.588
G2X52.486Y20.397I-0.634J-1.455
G1X52.522Y20.362
X52.786Y20.242
X52.937Y20.167
G2X53.462Y19.796I-0.634J-1.455
G2X53.769Y19.401I-1.084J-1.159
G1X53.984Y19.045
X54.143Y18.649
G2X54.266Y18.036I-1.464J-0.613
G1Y17.810
G2X54.174Y17.277I-1.587J0.000
G1X54.147Y17.137
G2X54.266Y16.533I-1.468J-0.604
G1Y16.230
X54.368Y15.944
G2X54.492Y15.330I-1.464J-0.613
G1Y15.287
X54.550Y15.037
X54.588Y14.913
X54.590Y14.912
G2X54.961Y14.386I-1.084J-1.159
G1X55.036Y14.236
G2X55.243Y13.451I-1.380J-0.784
G1Y13.408
G2X55.318Y12.954I-1.512J-0.483
G1X55.487Y12.657
X55.562Y12.507
X55.643Y12.344
X55.863Y11.981
X55.873Y11.962
X56.006Y11.767
G2X56.313Y11.305I-1.148J-1.096
G1X56.324Y11.285
X56.539Y10.929
G2X56.744Y10.225I-1.380J-0.784
G1X56.844Y10.173
G2X57.370Y9.801I-0.634J-1.455
G2X57.741Y9.276I-1.084J-1.159
G1X57.816Y9.126
X57.975Y8.729
X58.068Y8.425
G2X58.342Y7.998I-1.181J-1.060
G2X58.532Y7.447I-1.380J-0.784
G1X58.608Y7.142
G2X59.078Y7.025I-0.143J-1.581
G1X59.475Y6.866
X59.625Y6.791
G2X60.151Y6.420I-0.634J-1.455
G2X60.522Y5.894I-1.084J-1.159
G1X60.681Y5.498
X60.717Y5.404
G2X61.048Y4.917I-1.124J-1.121
G2X61.255Y4.133I-1.380J-0.784
G1Y3.532
G2X61.132Y2.919I-1.587J0.000
G1X60.973Y2.522
G2X60.601Y1.997I-1.455J0.634
G1X60.526Y1.922
X60.451Y1.846
X60.265Y1.677
X60.186Y1.345
X60.138Y1.127
X63.442
X63.496Y1.131
X63.500Y1.185
Y88.842
X63.496Y88.896
X63.442Y88.900
X54.126
G2X54.191Y88.449I-1.522J-0.451
G1Y87.773
G2X53.984Y86.989I-1.587J0.000
G1X53.769Y86.632
X53.733Y86.570
X53.740Y86.420
Y86.044
G2X53.648Y85.511I-1.588J0.000
G1X53.573Y85.210
G2X53.443Y84.776I-1.570J0.233
G2X53.927Y84.696I-0.013J-1.587
G1X54.289Y84.626
X54.482
G2X55.266Y84.419I0.000J-1.587
G2X55.792Y84.048I-0.634J-1.455
G2X56.163Y83.522I-1.084J-1.159
G2X56.370Y82.738I-1.380J-0.784
G1Y82.315
X56.539Y82.019
X56.614Y81.869
X56.689Y81.718
G2X56.896Y80.934I-1.380J-0.784
G1Y80.258
G2X56.689Y79.474I-1.588J0.000
G2X56.318Y78.948I-1.455J0.634
G1X56.243Y78.873
G2X55.726Y78.506I-1.159J1.084
G1X55.717Y78.497
X55.642Y78.422
X55.486Y78.277
X55.341Y78.122
X55.266Y78.046
X55.191Y77.971
X55.116Y77.896
X55.041Y77.821
G2X54.537Y77.460I-1.159J1.084
G1X54.585Y77.360
G2X54.792Y76.576I-1.380J-0.784
G1Y76.200
G2X54.289Y75.041I-1.587J0.000
G1X54.288Y75.039
X54.218Y74.835
X54.059Y74.439
X53.984Y74.289
X53.909Y74.138
G2X53.538Y73.613I-1.455J0.634
G1X53.462Y73.538
X53.387Y73.462
G2X52.862Y73.091I-1.159J1.084
G1X52.711Y73.016
X52.440Y72.894
X52.335Y72.786
G2X51.810Y72.415I-1.159J1.084
G2X51.025Y72.208I-0.784J1.380
G1X50.800
G2X50.016Y72.415I0.000J1.587
G2X49.194Y73.237I0.634J1.455
G2X48.987Y74.021I1.380J0.784
G1Y74.321
X49.008Y74.580
X48.885Y74.910
X48.827Y75.074
G2X48.363Y75.416I0.696J1.427
G1X48.288Y75.491
X48.213Y75.567
X48.138Y75.642
X48.062Y75.717
X47.917Y75.872
X47.719Y76.065
X47.601Y75.942
X47.526Y75.867
X47.451Y75.792
X47.375Y75.717
X47.300Y75.642
X47.225Y75.567
X47.150Y75.491
G2X46.755Y75.185I-1.159J1.084
G1X46.399Y74.970
X46.003Y74.811
G2X45.389Y74.688I-0.613J1.464
G1X44.713
X44.694Y74.688
X44.350Y74.433
G2X43.360Y74.086I-0.990J1.241
G1X42.759
G2X42.175Y74.198I0.000J1.588
G1X42.115Y74.139
X42.040Y74.064
G2X41.514Y73.692I-1.159J1.084
G2X40.730Y73.485I-0.784J1.380
G1X40.354
X39.987Y73.528
X39.591Y73.377
X39.555Y73.312
G2X39.184Y72.786I-1.455J0.634
G1X39.109Y72.711
X39.034Y72.636
G2X38.262Y72.181I-1.159J1.084
G1X37.882Y72.075
G2X37.349Y71.982I-0.533J1.495
G1X37.123
G2X36.510Y72.106I0.000J1.588
G2X35.738Y72.561I0.388J1.539
G1X35.663Y72.636
X35.588Y72.711
X35.513Y72.786
X35.438Y72.861
G2X35.066Y73.387I1.084J1.159
G1X34.907Y73.783
X34.857Y73.921
X34.691Y74.214
X34.616Y74.364
X34.540Y74.514
X34.381Y74.910
G2X34.258Y75.524I1.464J0.613
G1Y76.050
G2X34.381Y76.663I1.588J0.000
G2X34.836Y77.435I1.539J-0.388
G1X34.912Y77.510
X34.950Y77.550
X34.907Y77.691
G2X34.784Y78.304I1.464J0.613
G1Y78.457
G2X34.634Y79.131I1.437J0.674
G1Y79.431
G2X34.757Y80.045I1.588J0.000
G2X35.212Y80.816I1.539J-0.388
G1X35.287Y80.891
X35.362Y80.967
G2X35.888Y81.338I1.159J-1.084
G1X36.284Y81.497
G2X36.898Y81.620I0.613J-1.464
G1X37.123
G2X37.736Y81.497I0.000J-1.587
G1X38.041Y81.386
X38.170Y81.367
X38.191Y81.385
X38.068Y81.503
X37.993Y81.578
X37.917Y81.654
X37.842Y81.729
G2X37.471Y82.254I1.084J1.159
G1X37.312Y82.651
X37.237Y82.876
G2X37.114Y83.489I1.464J0.613
G1Y84.015
G2X37.321Y84.799I1.588J0.000
G2X37.692Y85.325I1.455J-0.634
G2X38.218Y85.696I1.159J-1.084
G1X38.614Y85.855
G2X39.227Y85.979I0.613J-1.464
G1X40.129
X40.516Y85.931
G2X41.060Y86.166I0.891J-1.314
G1X41.114Y86.352
G2X41.304Y86.904I1.570J-0.233
G1X41.379Y87.054
X41.472Y87.236
Y87.547
G2X41.596Y88.161I1.587J0.000
G1X41.755Y88.557
X41.848Y88.739
Y88.900
X1.410
X1.357Y88.896
X1.353Y88.842
Y22.080
G2X1.771Y22.347I1.052J-1.189
G2X2.555Y22.554I0.784J-1.380
G1X3.006
G2X3.790Y22.347I0.000J-1.588
G2X4.316Y21.975I-0.634J-1.455
G1X4.391Y21.900
G2X4.762Y21.375I-1.084J-1.159
G2X4.952Y20.823I-1.380J-0.784
G1X4.967Y20.778
X5.197Y20.702
G2X5.969Y20.247I-0.388J-1.539
G1X6.044Y20.172
X6.119Y20.097
X6.306Y19.888
G2X6.720Y19.571I-0.745J-1.402
G1X6.796Y19.496
X6.871Y19.420
X6.946Y19.345
X7.021Y19.270
G2X7.392Y18.744I-1.084J-1.159
G2X7.599Y17.960I-1.380J-0.784
G1Y17.641
X7.622Y17.617
X7.697Y17.542
X7.890Y17.326
X8.073Y17.237
G2X8.476Y16.984I-0.634J-1.455
G2X9.125Y16.565I-0.510J-1.503
G1X9.200Y16.490
X9.275Y16.415
G2X9.647Y15.889I-1.084J-1.159
G1X9.723Y15.736
X9.727Y15.734
G2X10.189Y15.426I-0.634J-1.455
G2X10.553Y15.137I-0.796J-1.374
G1X10.628Y15.062
X10.703Y14.987
G2X11.074Y14.461I-1.084J-1.159
G1X11.233Y14.065
X11.262Y13.990
G2X11.755Y13.634I-0.667J-1.441
G1X11.830Y13.559
X11.906Y13.484
G2X12.277Y12.958I-1.084J-1.159
G1X12.352Y12.808
G2X12.559Y12.061I-1.380J-0.784
G1X12.733Y11.976
X12.883Y11.901
X13.052Y11.815
X13.042Y11.852
X12.889Y12.237
G2X12.770Y12.729I1.464J0.613
G1X12.714Y12.955
X12.672Y13.043
X12.513Y13.439
G2X12.390Y14.053I1.464J0.613
G1Y14.654
G2X12.597Y15.438I1.588J0.000
G2X12.968Y15.964I1.455J-0.634
G1X13.043Y16.039
X13.119Y16.114
G2X13.644Y16.485I1.159J-1.084
G2X14.428Y16.692I0.784J-1.380
G1X14.804
G2X15.287Y16.617I0.000J-1.588
G1X15.405
G2X16.189Y16.410I0.000J-1.588
G1X16.340Y16.335
G2X16.865Y15.964I-0.634J-1.455
G2X17.237Y15.438I-1.084J-1.159
G1X17.312Y15.288
X17.344Y15.228
G2X17.777Y15.508I1.067J-1.175
G1X18.174Y15.667
G2X18.787Y15.790I0.613J-1.464
G1X19.088
G2X19.701Y15.667I0.000J-1.588
G2X20.472Y15.212I-0.388J-1.539
G1X20.548Y15.137
X20.623Y15.062
X20.698Y14.987
G2X21.005Y14.592I-1.084J-1.159
G1X21.219Y14.236
X21.229Y14.218
G2X21.535Y14.611I1.390J-0.766
G1X21.610Y14.686
X21.685Y14.761
X21.761Y14.836
G2X22.125Y15.126I1.159J-1.084
G1X22.136Y15.137
G2X22.662Y15.508I1.159J-1.084
G2X23.446Y15.715I0.784J-1.380
G1X23.897
G2X24.681Y15.508I0.000J-1.588
G2X25.207Y15.137I-0.634J-1.455
G1X25.282Y15.062
X25.357Y14.987
X25.432Y14.912
G2X25.918Y13.985I-1.084J-1.159
G2X26.011Y13.451I-1.495J-0.533
G1Y13.408
X26.038Y13.313
X26.107Y13.110
G2X26.405Y12.657I-1.158J-1.086
G1X26.564Y12.261
X26.668Y11.893
X26.716Y11.811
G2X27.045Y11.054I-1.241J-0.990
G2X27.138Y10.521I-1.495J-0.533
G1Y10.446
G2X27.039Y9.894I-1.588J0.000
G1X27.063Y9.619
Y9.544
G2X26.970Y9.010I-1.588J0.000
G2X26.780Y8.459I-1.570J0.233
G1X26.705Y8.309
G2X26.334Y7.783I-1.455J0.634
G1X26.259Y7.708
G2X25.733Y7.337I-1.159J1.084
G1X25.583Y7.262
G2X24.799Y7.055I-0.784J1.380
G1X23.596
G2X22.812Y7.262I0.000J1.588
G1X22.662Y7.337
X22.512Y7.412
G2X22.093Y7.679I0.634J1.455
G2X21.429Y7.328I-1.052J1.189
G2X20.816Y7.205I-0.613J1.464
G1X20.628
X20.543Y7.031
G2X20.172Y6.506I-1.455J0.634
G1X20.097Y6.430
X20.022Y6.355
X19.946Y6.280
X19.871Y6.205
X19.796Y6.130
X19.721Y6.055
X19.646Y5.980
G2X19.267Y5.682I-1.159J1.084
G1X19.266Y5.679
G2X18.894Y5.153I-1.455J0.634
G1X18.819Y5.078
G2X18.294Y4.707I-1.159J1.084
G1X18.143Y4.631
G2X17.718Y4.465I-0.784J1.380
G1X17.773Y4.372
X17.989Y4.013
G2X18.368Y3.715I-0.780J-1.382
G1X18.444Y3.639
X18.519Y3.564
G2X18.890Y3.039I-1.084J-1.159
G2X19.097Y2.254I-1.380J-0.784
G1Y1.353
X19.081Y1.127
G0Z5.080
G0X20.085Y17.916
G1Z-7.000F300.0
G1X20.022Y17.853F1000.0
G2X18.862Y17.350I-1.159J1.084
G1X18.768
X18.744Y17.327
G2X18.218Y16.956I-1.159J1.084
G2X17.434Y16.749I-0.784J1.380
G1X16.758
G2X15.974Y16.956I0.000J1.588
G1X15.618Y17.170
G2X15.223Y17.477I0.765J1.391
G1X15.148Y17.552
G2X14.841Y17.947I1.084J1.159
G1X14.708Y18.142
G2X14.401Y18.604I1.148J1.096
G2X14.194Y19.388I1.380J0.784
G1Y19.463
G2X14.317Y20.077I1.588J0.000
G2X14.772Y20.848I1.539J-0.388
G1X14.827Y20.904
G2X14.668Y21.372I1.405J0.739
G1X14.626Y21.460
G2X14.436Y22.011I1.380J0.784
G2X14.344Y22.544I1.495J0.533
G1Y22.588
G2X14.269Y23.070I1.512J0.483
G1Y23.596
G2X14.476Y24.381I1.588J0.000
G1X14.551Y24.531
G2X14.922Y25.057I1.455J-0.634
G2X15.448Y25.428I1.159J-1.084
G1X15.598Y25.503
G2X16.382Y25.710I0.784J-1.380
G1X16.749
G2X16.956Y26.485I1.587J-0.009
G1X17.031Y26.635
G2X17.402Y27.161I1.455J-0.634
G2X17.928Y27.532I1.159J-1.084
G1X18.078Y27.607
G2X18.629Y27.797I0.784J-1.380
G2X19.163Y27.889I0.533J-1.495
G1X19.313
G2X19.847Y27.797I0.000J-1.587
G2X20.398Y27.607I-0.233J-1.570
G2X20.923Y27.236I-0.634J-1.455
G1X20.999Y27.161
X21.074Y27.086
G2X21.445Y26.560I-1.084J-1.159
G1X21.466Y26.521
X21.675Y26.334
G2X22.046Y25.808I-1.084J-1.159
G1X22.121Y25.658
X22.280Y25.262
G2X22.402Y24.706I-1.464J-0.613
G2X22.767Y24.116I-1.136J-1.109
G2X23.176Y23.405I-1.124J-1.121
G1X23.178Y23.403
X23.253Y23.328
X23.328Y23.253
G2X23.699Y22.727I-1.084J-1.159
G1X23.858Y22.331
G2X23.982Y21.718I-1.464J-0.613
G1Y21.192
G2X23.774Y20.408I-1.588J0.000
G1X23.699Y20.257
G2X23.328Y19.732I-1.455J0.634
G1X23.253Y19.656
X22.943Y19.399
G2X22.501Y18.680I-1.525J0.440
G1X22.426Y18.604
X22.351Y18.529
X22.276Y18.454
G2X21.750Y18.083I-1.159J1.084
G2X20.966Y17.876I-0.784J1.380
G1X20.440
X20.085Y17.916
G0Z5.080
G0X53.893Y27.843
G1Z-7.000F300.0
G2X53.280Y27.720I-0.613J1.464F1000.0
G1X53.130
G2X52.516Y27.843I0.000J1.588
G1X52.120Y28.002
G2X51.594Y28.374I0.634J1.455
G1X51.519Y28.449
G2X51.148Y28.974I1.084J1.159
G1X51.073Y29.125
G2X50.866Y29.909I1.380J0.784
G1Y30.360
X50.868Y30.435
X50.866Y30.510
Y30.612
G2X50.622Y31.003I1.212J1.026
G1X50.547Y31.154
G2X50.340Y31.938I1.380J0.784
G1Y32.238
G2X50.463Y32.852I1.588J0.000
G2X50.918Y33.623I1.539J-0.388
G1X50.993Y33.699
X51.068Y33.774
X51.075Y33.780
X51.073Y33.784
X50.914Y34.180
G2X50.791Y34.793I1.464J0.613
G1Y34.963
X50.768Y34.987
X50.693Y35.062
G2X50.324Y35.581I1.084J1.159
G1X50.242Y35.663
X50.167Y35.738
G2X49.795Y36.264I1.084J1.159
G1X49.720Y36.414
X49.709Y36.434
X49.495Y36.790
X49.338Y37.177
G2X49.137Y37.950I1.387J0.773
G1Y38.325
G2X49.345Y39.110I1.588J0.000
G2X49.716Y39.635I1.455J-0.634
G2X50.241Y40.006I1.159J-1.084
G2X51.025Y40.214I0.784J-1.380
G1X51.627
X51.777Y40.206
X51.927Y40.214
X52.604
G2X53.217Y40.090I0.000J-1.588
G1X53.362Y40.046
G2X54.120Y39.717I-0.233J-1.570
G2X54.746Y39.090I-0.765J-1.391
G1X54.971Y38.711
X55.008
G2X56.168Y38.207I0.000J-1.588
G1X56.243Y38.132
G2X56.746Y36.973I-1.084J-1.159
G1Y36.597
X56.746Y36.563
X56.769Y36.550
X56.920Y36.474
G2X57.445Y36.103I-0.634J-1.455
G1X57.520Y36.028
G2X57.892Y35.502I-1.084J-1.159
G2X58.099Y34.718I-1.380J-0.784
G1Y34.343
G2X57.892Y33.558I-1.587J0.000
G1X57.677Y33.202
G2X57.370Y32.807I-1.391J0.765
G2X56.975Y32.501I-1.159J1.084
G2X56.106Y32.159I-0.990J1.241
G2X55.609Y32.079I-0.497J1.508
G1X54.792
Y32.077
X54.886Y31.895
X54.961Y31.745
G2X55.145Y31.232I-1.380J-0.784
G1X55.186Y31.144
G2X55.393Y30.360I-1.380J-0.784
G1Y29.683
G2X54.890Y28.524I-1.588J0.000
G1X54.815Y28.449
X54.740Y28.374
X54.665Y28.299
G2X53.893Y27.843I-1.159J1.084
G0Z5.080
G0X53.645Y49.903
G1Z-7.000F300.0
G1X53.430Y49.889F1000.0
X52.829
G2X51.670Y50.392I0.000J1.588
G1X51.594Y50.467
X51.519Y50.542
X51.444Y50.617
G2X50.989Y51.389I1.084J1.159
G2X50.866Y52.002I1.464J0.613
G1Y52.872
X50.806Y53.133
X50.768Y53.172
G2X50.265Y54.332I1.084J1.159
G1Y54.933
G2X50.472Y55.717I1.588J0.000
G1X50.584Y55.930
G2X50.772Y56.469I1.568J-0.245
G1X50.847Y56.619
X50.923Y56.769
X51.143Y57.132
X51.223Y57.295
G2X51.594Y57.821I1.455J-0.634
G1X51.670Y57.896
X51.782Y58.005
X51.777
G2X50.993Y58.212I0.000J1.588
G2X50.467Y58.583I0.634J1.455
G1X50.201Y58.908
G2X49.490Y59.114I0.073J1.586
G2X48.964Y59.485I0.634J1.455
G1X48.889Y59.560
X48.814Y59.635
G2X48.364Y60.385I1.084J1.159
G1X48.363Y60.387
X48.288Y60.462
X48.213Y60.537
X48.138Y60.612
G2X47.848Y60.976I1.084J1.159
G2X47.409Y62.072I1.148J1.096
G1Y62.523
G2X47.756Y63.513I1.587J0.000
G2X48.062Y63.908I1.391J-0.765
G1X48.138Y63.983
X48.213Y64.058
G2X48.984Y64.513I1.159J-1.084
G2X49.598Y64.637I0.613J-1.464
G1X49.823
G2X50.607Y64.429I0.000J-1.587
G1X50.757Y64.354
G2X51.283Y63.983I-0.634J-1.455
G2X51.654Y63.457I-1.084J-1.159
G2X51.830Y62.986I-1.380J-0.784
G1X51.884Y62.931
X51.959Y62.856
X52.035Y62.781
X52.110Y62.706
G2X52.565Y61.934I-1.084J-1.159
G1X52.646Y61.684
X52.711Y61.649
G2X53.237Y61.278I-0.634J-1.455
G2X53.608Y60.752I-1.084J-1.159
G2X53.815Y59.968I-1.380J-0.784
G1Y59.893
G2X53.608Y59.109I-1.587J0.000
G2X53.237Y58.583I-1.455J0.634
G1X53.125Y58.474
X53.355
G2X54.139Y58.267I0.000J-1.587
G1X54.289Y58.192
X54.440Y58.117
X54.796Y57.902
G2X55.191Y57.596I-0.765J-1.391
G2X55.562Y57.070I-1.084J-1.159
G1X55.637Y56.920
X55.761Y56.642
G2X56.243Y56.464I-0.302J-1.558
G1X56.394Y56.389
G2X56.919Y56.017I-0.634J-1.455
G1X56.994Y55.942
X57.070Y55.867
X57.145Y55.792
X57.220Y55.717
X57.295Y55.642
G2X57.666Y55.116I-1.084J-1.159
G1X57.741Y54.966
G2X57.948Y54.182I-1.380J-0.784
G1Y54.095
X58.042Y53.914
X58.117Y53.763
G2X58.324Y52.979I-1.380J-0.784
G1Y52.528
G2X58.117Y51.744I-1.587J0.000
G2X57.746Y51.219I-1.455J0.634
G1X57.671Y51.143
X57.596Y51.068
X57.520Y50.993
X57.512Y50.984
G2X57.196Y50.517I-1.452J0.642
G2X56.990Y49.790I-1.586J0.057
G2X56.168Y48.969I-1.455J0.634
G2X55.384Y48.762I-0.784J1.380
G1X55.309
G2X54.525Y48.969I0.000J1.588
G2X53.703Y49.790I0.634J1.455
G1X53.645Y49.903
G0Z5.080
G0X6.946Y48.127
G1Z-7.000F300.0
G1X7.021Y48.052F1000.0
G2X7.524Y46.892I-1.084J-1.159
G1Y46.667
G2X7.021Y45.507I-1.588J0.000
G1X6.946Y45.432
G2X5.786Y44.929I-1.159J1.084
G1X5.411
G2X4.251Y45.432I0.000J1.588
G2X3.748Y46.592I1.084J1.159
G1Y46.967
G2X4.251Y48.127I1.588J0.000
G1X4.326Y48.202
G2X5.486Y48.705I1.159J-1.084
G1X5.711
G2X6.871Y48.202I0.000J-1.588
G1X6.946Y48.127
G0Z5.080
G0X8.183Y1.128
G1Z-8.000F300.0
G1X1.393F1000.0
X1.357Y1.131
X1.353Y1.185
Y3.351
X8.536
X8.496Y3.548
X8.482Y3.757
Y3.983
X8.484Y4.060
X8.313Y4.182
X8.159Y4.326
X8.084Y4.401
X8.009Y4.477
X7.862Y4.634
X7.737Y4.811
X7.637Y5.002
X7.548Y5.186
X7.483Y5.381
